!!!!SEGMENT: pl-wtm--r-1578_stefani-jozef--offertorium.krn
!!!cenid: 18xx:2902
!!!COM: Stefani, Józef
!!!COM-rism: pe30024097
!!!CDT: 1800/04/16-1876/03/19
!!!CNT: Polish
!!!OTL: Offertorium
!!!PDT:
!!!AGN: Sacred
!!!SMS-siglum: PL-Wtm
!!!SMS-shelfmark: R 1578
!!!NIFC-rismID: 1001115457
!!!URL-scan: http://repozytorium.nifc.pl/skany/pl-wtm-nut--r1578
!!!ONB-nifc:
!!!SMS-variant:
!!!SMS-altvar:
!!!OMD: Andantino
**kern	**kern	**kern	**text	**dynam	**kern	**dynam	**kern	**text	**dynam	**kern	**text	**dynam	**kern	**dynam	**kern	**dynam	**kern	**dynam	**kern	**dynam	**kern	**dynam	**kern	**dynam	**kern	**dynam	**kern	**dynam	**kern	**dynam
*	*	*	*	*	*	*	*	*	*	*	*	*	*	*	*	*	*	*	*group1	*	*group1	*	*	*	*	*	*	*	*	*
*	*	*	*	*	*	*	*	*	*	*	*	*	*	*	*	*	*	*	*I""Violini	*	*I""Violini	*	*	*	*	*	*	*	*	*
*part14	*part14	*part13	*part13	*part13	*part12	*part12	*part11	*part11	*part11	*part10	*part10	*part10	*part9	*part9	*part8	*part8	*part7	*part7	*part6	*part6	*part5	*part5	*part4	*part4	*part3	*part3	*part2	*part2	*part1	*part1
*staff15	*staff14	*staff13	*staff13	*	*staff12	*	*staff11	*staff11	*	*staff10	*staff10	*	*staff9	*	*staff8	*	*staff7	*	*staff6	*	*staff5	*	*staff4	*	*staff3	*	*staff2	*	*staff1	*
*I"Organo	*I"Organo	*I"Baſso	*	*	*I"Tenore	*	*I"2o, Soprano	*	*	*I"1o, Soprano	*	*	*I"C: Baſsi	*	*I"Violoncelli	*	*I"Viole	*	*	*	*	*	*I"Fagotti	*	*I"in E Corni	*	*I"in a Clarinetti	*	*I"Flauto	*
*clefF4	*clefG2	*clefF4	*	*	*clefC4	*	*clefG2	*	*	*clefG2	*	*	*clefF4	*	*clefF4	*	*clefC3	*	*clefG2	*	*clefG2	*	*clefF4	*	*clefG2	*	*clefG2	*	*clefG2	*
*	*	*	*	*	*	*	*	*	*	*	*	*	*ITrd0c0	*	*	*	*	*	*	*	*	*	*	*	*ITrd5c8	*	*ITrd2c3	*	*	*
*k[f#c#g#d#]	*k[f#c#g#d#]	*k[f#c#g#d#]	*	*	*k[f#c#g#d#]	*	*k[f#c#g#d#]	*	*	*k[f#c#g#d#]	*	*	*k[f#c#g#d#]	*	*k[f#c#g#d#]	*	*k[f#c#g#d#]	*	*k[f#c#g#d#]	*	*k[f#c#g#d#]	*	*k[f#c#g#d#]	*	*k[f#c#g#d#]	*	*k[f#c#g#d#]	*	*k[f#c#g#d#]	*
*M3/4	*M3/4	*M3/4	*	*	*M3/4	*	*M3/4	*	*	*M3/4	*	*	*M3/4	*	*M3/4	*	*M3/4	*	*M3/4	*	*M3/4	*	*M3/4	*	*M3/4	*	*M3/4	*	*M3/4	*
*all\right	*all\right	*all\right	*	*	*all\right	*	*all\right	*	*	*all\right	*	*	*all\right	*	*all\right	*	*all\right	*	*all\right	*	*all\right	*	*all\right	*	*all\right	*	*all\right	*	*all\right	*
*	*^	*	*	*	*	*	*	*	*	*	*	*	*	*	*^	*	*	*	*^	*	*^	*	*	*	*	*	*^	*	*	*
!	!	!	!	!	!	!	!	!	!	!	!	!	!	!	!	!	!	!	!	!	!	!	!	!	!	!	!	!LO:DY:a:rj	!	!	!	!	!	!LO:TX:a:i:t=dolce	!
4GG#\ 4G#	8.b/L	[4e\	4r	.	.	4r	.	4r	.	.	4r	.	.	4r	.	4rEE	4G#/	.	4r	.	4r	[4e/	.	4rA	8b/L	.	4GG#\ 4G#	p	4r	.	8b/L	[4e\	.	8bb\L	<
.	.	.	.	.	.	.	.	.	.	.	.	.	.	.	.	.	.	.	.	.	.	.	.	.	16r	.	.	.	.	.	16r	.	.	16r	.
.	16b#X/Jk	.	.	.	.	.	.	.	.	.	.	.	.	.	.	.	.	.	.	.	.	.	.	.	16b#X/Jk	.	.	.	.	.	16b#X/Jk	.	.	16bb#X|>\Jk	[[
=1	=1	=1	=1	=1	=1	=1	=1	=1	=1	=1	=1	=1	=1	=1	=1	=1	=1	=1	=1	=1	=1	=1	=1	=1	=1	=1	=1	=1	=1	=1	=1	=1	=1	=1	=1
*	*	*	*	*	*	*	*	*	*	*	*	*	*	*	*	*	*	*	*^	*	*	*	*	*	*	*	*	*	*	*	*	*	*	*	*
!	!	!	!	!	!	!	!	!	!	!	!	!	!	!	!	!	!	!	!	!	!	!	!	!	!	!	!	!	!	!	!LO:DY:rj	!	!	!	!	!
4.AA\ 4.A	4dd#/	4.e\]	2.r	.	.	2.r	.	2.r	.	.	2.r	.	.	2.r	.	2.rEE	4.A/	.	2.r	4.e\	.	2.r	4.e/]	.	2.rA	4dd#/	.	4.AA\ 4.A	.	4.E^/ 4.e	p	4dd#/	4.e\]	.	(4ddd#\	>
.	8cc#/	.	.	.	.	.	.	.	.	.	.	.	.	.	.	.	.	.	.	.	.	.	.	.	.	8cc#/	.	.	.	.	.	8cc#/	.	.	8ccc#\)	.
8r	8r	8r	.	.	.	.	.	.	.	.	.	.	.	.	.	.	8rA	.	.	8r	.	.	8r	.	.	8rff	.	8r	.	8r	.	8r	8r	.	8r	]
4FF##X\ 4F##X	4a#X/	[4e\	.	.	.	.	.	.	.	.	.	.	.	.	.	.	4F##X/	.	.	4r	.	.	4e/	.	.	8a#X/L	.	4FF##X/ 4F##X	.	4r	.	8a#X/L	[4e\	.	8aa#X|>\L	<
.	.	.	.	.	.	.	.	.	.	.	.	.	.	.	.	.	.	.	.	.	.	.	.	.	.	16r	.	.	.	.	.	16r	.	.	16r	.
.	.	.	.	.	.	.	.	.	.	.	.	.	.	.	.	.	.	.	.	.	.	.	.	.	.	16a#/Jk	.	.	.	.	.	16a#/Jk	.	.	16aa#|>\Jk	[[
=2	=2	=2	=2	=2	=2	=2	=2	=2	=2	=2	=2	=2	=2	=2	=2	=2	=2	=2	=2	=2	=2	=2	=2	=2	=2	=2	=2	=2	=2	=2	=2	=2	=2	=2	=2	=2
4.GG#\ 4.G#	4cc#/	4.e\]	2.r	.	.	2.r	.	2.r	.	.	2.r	.	.	2.r	.	2.rCC	4.G#/	.	2.r	4.e\	.	2.r	4.e/	.	2.rA	4cc#/	.	4.GG#/ 4.G#	.	4.E/ 4.e	.	(4cc#/	4.e\]	.	(4ccc#\	>
.	8b/	.	.	.	.	.	.	.	.	.	.	.	.	.	.	.	.	.	.	.	.	.	.	.	.	8b/	.	.	.	.	.	8b/)	.	.	8bb\)	.
8r	8r	4.ryy	.	.	.	.	.	.	.	.	.	.	.	.	.	.	8rc	.	.	8r	.	.	8r	.	.	8r	.	8r	.	8r	.	8r	4.ryy	.	8r	]
4r	4r	.	.	.	.	.	.	.	.	.	.	.	.	.	.	.	4rc	.	.	4r	.	.	4r	.	.	4r	.	4r	.	4r	.	4r	.	.	4r	.
*	*	*	*	*	*	*	*	*	*	*	*	*	*	*	*	*v	*v	*	*	*	*	*v	*v	*	*v	*v	*	*	*	*	*	*v	*v	*	*	*
*	*	*	*	*	*	*	*	*	*	*	*	*	*	*	*	*	*	*v	*v	*	*	*	*	*	*	*	*	*	*	*	*	*
!!LO:PB:g=original
=3	=3	=3	=3	=3	=3	=3	=3	=3	=3	=3	=3	=3	=3	=3	=3	=3	=3	=3	=3	=3	=3	=3	=3	=3	=3	=3	=3	=3	=3	=3	=3
*	*	*2\right	*	*	*	*	*	*	*	*	*	*	*	*	*	*	*	*	*	*	*	*	*	*	*	*	*	*	*	*	*
!	!	!	!	!	!	!	!	!	!	!	!	!	!	!	!	!	!LO:DY:rj	!	!	!	!	!	!LO:DY:rj	!	!	!	!	!	!	!	!
4.A\	4.f#/	[2.c#\	2.r	.	.	2.r	.	2.r	.	.	2.r	.	.	2.r	.	(4.A\	p <	(4.A/	.	[2.c#/	.	(>4.f#/	p	2.ryy	.	2.ryy	.	2.ryy	.	2.ryy	.
8G#\L	8e#X/L	.	.	.	.	.	.	.	.	.	.	.	.	.	.	8G#\L	.	8G#/L	.	.	.	8e#X/L	<	.	.	.	.	.	.	.	.
8A\	8f#/	.	.	.	.	.	.	.	.	.	.	.	.	.	.	8A\	.	8A/	.	.	.	8f#/	.	.	.	.	.	.	.	.	.
8E#X\J	8g#/J	.	.	.	.	.	.	.	.	.	.	.	.	.	.	8E#X\J)	[[	8E#X/J)	.	.	.	8g#/J)	[[	.	.	.	.	.	.	.	.
=4	=4	=4	=4	=4	=4	=4	=4	=4	=4	=4	=4	=4	=4	=4	=4	=4	=4	=4	=4	=4	=4	=4	=4	=4	=4	=4	=4	=4	=4	=4	=4
4.F#\	4.b/	2.c#\]	2.r	.	.	2.r	.	2.r	.	.	2.r	.	.	2.r	.	(4.F#\	>	(4.F#/	.	2.c#/]	.	(>4.b/	>	2.ryy	.	2.ryy	.	2.ryy	.	2.ryy	.
8F#\L	8a/L	.	.	.	.	.	.	.	.	.	.	.	.	.	.	8F#\L	.	8F#/L	.	.	.	8a/L	.	.	.	.	.	.	.	.	.
8G#\	8g#/	.	.	.	.	.	.	.	.	.	.	.	.	.	.	8G#\	]	8G#/	.	.	.	8g#/	]	.	.	.	.	.	.	.	.
8A\J	8f#/J	.	.	.	.	.	.	.	.	.	.	.	.	.	.	8A\J)	.	8A/J)	.	.	.	8f#/J	.	.	.	.	.	.	.	.	.
=5	=5	=5	=5	=5	=5	=5	=5	=5	=5	=5	=5	=5	=5	=5	=5	=5	=5	=5	=5	=5	=5	=5	=5	=5	=5	=5	=5	=5	=5	=5	=5
*	*	*	*	*	*	*	*	*	*	*	*	*	*	*	*	*	*	*	*	*	*	*	*	*^	*	*	*	*	*	*	*
!	!	!	!	!	!	!	!	!	!	!	!	!	!	!	!	!	!LO:DY:rj	!	!	!	!LO:DY:rj	!	!LO:DY:rj	!	!	!	!	!	!	!LO:DY:rj	!	!
16B\LL	16g#/LL	4e\	2.r	.	.	2.r	.	2.r	.	.	2.r	.	.	4r	.	8B\	f	8B/	.	8e/	f	8g#/)	f	2.rAAA	16B/LL	.	16B'/LL	.	16b'/LL	f	2.ryy	.
16G#\	16g#/	.	.	.	.	.	.	.	.	.	.	.	.	.	.	.	.	.	.	.	.	.	.	.	16G#/	.	16G#'/	.	16g#'/	.	.	.
16E\	16e/	.	.	.	.	.	.	.	.	.	.	.	.	.	.	8r	.	8r	.	8r	.	8r	.	.	16E/	.	16E'/	.	16e'/	.	.	.
16G#\JJ	16g#/JJ	.	.	.	.	.	.	.	.	.	.	.	.	.	.	.	.	.	.	.	.	.	.	.	16G#/JJ	.	16G#'/JJ	.	16g#'/JJ	.	.	.
*2\right	*	*	*	*	*	*	*	*	*	*	*	*	*	*	*	*	*	*	*	*	*	*	*	*	*	*	*	*	*	*	*	*
[2B\	[>2b/	2ryy	.	.	.	.	.	.	.	.	.	.	.	16r	.	16ryy	.	16r	.	16r	.	16r	.	.	[>2B/	.	[>2B/	.	[>2b/	.	.	.
!	!	!	!	!	!	!	!	!	!	!	!	!	!	!	!LO:DY:a:rj	!	!	!	!	!	!	!	!	!	!	!	!	!	!	!	!	!
.	.	.	.	.	.	.	.	.	.	.	.	.	.	(16E'\LL	p	(16E'\LLyy	.	(16E'/LL 16B	.	(16e'/LL	.	(16B'/LL 16g#	.	.	.	.	.	.	.	.	.	.
.	.	.	.	.	.	.	.	.	.	.	.	.	.	16E'\	.	16E'\yy	.	16E'/ 16B	.	16e'/	.	16B'/ 16g#	.	.	.	.	.	.	.	.	.	.
.	.	.	.	.	.	.	.	.	.	.	.	.	.	16E'\JJ	.	16E'\JJyy	.	16E'/JJ 16B	.	16e'/JJ	.	16B'/JJ 16g#	.	.	.	.	.	.	.	.	.	.
.	.	.	.	.	.	.	.	.	.	.	.	.	.	8E'\)	.	8E'\)yy	.	8E'/) 8B	.	8e'/)	.	8B'/) 8g#	.	.	.	.	.	.	.	.	.	.
.	.	.	.	.	.	.	.	.	.	.	.	.	.	8r	.	8ryy	.	8r	.	8r	.	8r	.	.	.	.	.	.	.	.	.	.
*	*v	*v	*	*	*	*	*	*	*	*	*	*	*	*	*	*	*	*	*	*	*	*	*	*	*	*	*	*	*	*	*	*
=6	=6	=6	=6	=6	=6	=6	=6	=6	=6	=6	=6	=6	=6	=6	=6	=6	=6	=6	=6	=6	=6	=6	=6	=6	=6	=6	=6	=6	=6	=6	=6
16B\LL]	16b/LL]	2.r	.	.	2.r	.	2.r	.	.	2.r	.	.	4r	.	4ryy	.	4r	.	4r	.	4r	.	2.rAAA	16B/LL]	.	16B/LL]	.	16b/LL]	.	2.ryy	.
16G#\	16g#/	.	.	.	.	.	.	.	.	.	.	.	.	.	.	.	.	.	.	.	.	.	.	16G#/	.	16G#'/	.	16g#'/	.	.	.
16B\	16b/	.	.	.	.	.	.	.	.	.	.	.	.	.	.	.	.	.	.	.	.	.	.	16B/	.	16B'/	.	16b'/	.	.	.
16e\JJ	16ee/JJ	.	.	.	.	.	.	.	.	.	.	.	.	.	.	.	.	.	.	.	.	.	.	16e/JJ	.	16e'/JJ	.	16ee'/JJ	.	.	.
[2B\	2b/	.	.	.	.	.	.	.	.	.	.	.	16r	.	16ryy	.	16r	.	16r	.	16r	.	.	[>2B/	.	[2B/	.	[>2b/	.	.	.
.	.	.	.	.	.	.	.	.	.	.	.	.	16E\LL	.	16E\LLyy	.	(16E'/LL 16B	.	(16e'/LL	.	(16B'/LL 16g#	.	.	.	.	.	.	.	.	.	.
.	.	.	.	.	.	.	.	.	.	.	.	.	16E\	.	16E\yy	.	16E'/ 16B	.	16e'/	.	16B'/ 16g#	.	.	.	.	.	.	.	.	.	.
.	.	.	.	.	.	.	.	.	.	.	.	.	16E\JJ	.	16E\JJyy	.	16E'/JJ 16B	.	16e'/JJ	.	16B'/JJ 16g#	.	.	.	.	.	.	.	.	.	.
.	.	.	.	.	.	.	.	.	.	.	.	.	8E\	.	8E\yy	.	8E'/) 8B	.	8e'/)	.	8B'/) 8g#	.	.	.	.	.	.	.	.	.	.
.	.	.	.	.	.	.	.	.	.	.	.	.	8r	.	8ryy	.	8r	.	8r	.	8r	.	.	.	.	.	.	.	.	.	.
=7	=7	=7	=7	=7	=7	=7	=7	=7	=7	=7	=7	=7	=7	=7	=7	=7	=7	=7	=7	=7	=7	=7	=7	=7	=7	=7	=7	=7	=7	=7	=7
*^	*	*	*	*	*	*	*	*	*	*	*	*	*	*	*	*	*	*	*	*	*	*	*	*	*	*^	*	*^	*	*	*
8B\]	4ryy	8b/	2.r	.	.	2.r	.	2.r	.	.	2.r	.	.	4r	.	4ryy	.	4r	.	4r	.	4r	.	4rEE	8B/]	.	8B/]	4r	.	8b/]	4r	.	4r	.
8r	.	8r	.	.	.	.	.	.	.	.	.	.	.	.	.	.	.	.	.	.	.	.	.	.	8r	.	8r	.	.	8r	.	.	.	.
!	!	!	!	!	!	!	!	!	!	!	!	!	!	!	!	!	!	!	!	!	!LO:DY:rj	!	!LO:DY:rj	!	!	!	!	!	!	!	!	!	!	!LO:DY:rj
4B/	2BB\	4e/ 4g#	.	.	.	.	.	.	.	.	.	.	.	4B\	.	4B\yy	.	4B\ 4g#	.	4g#\ 4ee	f	4b\ 4gg#	f	4BB\ 4B	2ryy	.	4g#/	4e\	.	4b\ 4gg#	2ryy	.	4eee\	f
4A/	.	4B/ 4d# 4f#	.	.	.	.	.	.	.	.	.	.	.	4BB/	.	4BB/yy	.	4B\ 4a	.	4f#\ 4dd#	.	4b\ 4ff#	.	4BB\ 4B	.	.	4f#/	4B\	.	4a\ 4ff#	.	.	4ddd#\	.
*	*	*	*	*	*	*	*	*	*	*	*	*	*	*	*	*	*	*	*	*	*	*	*	*v	*v	*	*	*	*	*v	*v	*	*	*
=8	=8	=8	=8	=8	=8	=8	=8	=8	=8	=8	=8	=8	=8	=8	=8	=8	=8	=8	=8	=8	=8	=8	=8	=8	=8	=8	=8	=8	=8	=8	=8	=8
*	*	*	*	*	*	*	*	*	*	*	*	*	*	*	*	*^	*	*^	*	*^	*	*^	*	*	*	*	*	*	*	*	*	*
8G#/	8E\	8B/ 8e	2.r	.	.	2.r	.	2.r	.	.	2.r	.	.	8E\	.	8E\	4ryy	.	8B\ 8g#	4ryy	.	8g#\ 8ee	4ryy	.	8ee\	4ryy	.	8E\ 8B	.	8G#/ 8e	4ryy	.	8g#\ 8ee	.	8eee\	.
8r	2ryy	8r	.	.	.	.	.	.	.	.	.	.	.	8r	.	8r	.	.	8r	.	.	8r	.	.	8r	.	.	8r	.	8r	.	.	8r	.	8r	.
*	*	*	*	*	*	*	*	*	*	*	*	*	*	*	*	*	*	*	*	*	*	*	*	*	*	*	*	*2\right	*	*2\right	*	*	*2\right	*	*2\right	*
(>2Cn\ (>2cn	.	(<2e/ [>2f# (>2a#X	.	.	.	.	.	.	.	.	.	.	.	4r	.	(2cn/	4r	.	2f#/	4r	.	2a#X^/	4r	.	2ee^/	4r	.	(2cn^\	.	2f#^/	2e\	.	((2a#X^\ 2ee	.	(2aa#X\	.
.	.	.	.	.	.	.	.	.	.	.	.	.	.	4r	.	.	4r	.	.	4r	.	.	4r	.	.	4r	.	.	.	.	.	.	.	.	.	.
.	8ryy	.	.	.	.	.	.	.	.	.	.	.	.	.	.	.	.	.	.	.	.	.	.	.	.	.	.	.	.	.	.	.	.	.	.	.
*v	*v	*	*	*	*	*	*	*	*	*	*	*	*	*	*	*	*	*	*	*	*	*	*	*	*	*	*	*	*	*v	*v	*	*	*	*	*
!!LO:PB:g=original
=9	=9	=9	=9	=9	=9	=9	=9	=9	=9	=9	=9	=9	=9	=9	=9	=9	=9	=9	=9	=9	=9	=9	=9	=9	=9	=9	=9	=9	=9	=9	=9	=9	=9	=9
*	*	*	*	*	*	*	*	*	*	*	*	*	*	*	*	*	*	*	*^	*	*	*	*	*	*	*	*	*	*	*	*^	*	*	*
!	!	!	!	!	!	!	!	!	!	!	!	!	!	!	!	!	!	!	!	!	!	!	!	!	!	!	!	!	!	!	!	!LO:TX:t=P:problem:brak zakończenia ligatury	!	!	!LO:TX:t=P:problem:brak zakończenia ligatury	!
!	!	!	!	!	!	!	!	!	!	!	!	!	!	!	!	!	!	!	!	!	!	!	!	!	!	!	!	!LO:TX:t=P:problem:brak zakończenia ligatury	!	!	!	!	!LO:TX:t=P:problem:brak zakończenia ligatury	!	!	!
4.BB\) 4.B)	4.d#/) 4.f#] 4.b)	2.r	.	.	2.r	.	2.r	.	.	2.r	.	.	2.r	.	2.rCC	4.B/)	.	2.rGG	4.f#/	4.B\	.	2.rA	4.dd#/	.	2.rA	4.dd#/	.	4.B\)	.	4.B/ 4.f#	.	4.dd#/))	4.b\	.	4.bb\)	.
8r	(8f#/L 8a	.	.	.	.	.	.	.	.	.	.	.	.	.	.	8rc	.	.	8f#/L	4.ryy	.	.	8a/L	.	.	8raa	.	8r	.	8f#\L 8a	.	8r	4.ryy	.	8r	.
4r	8e/ 8g#	.	.	.	.	.	.	.	.	.	.	.	.	.	.	4rc	.	.	8e/	.	.	.	8g#/	.	.	4rff	.	4r	.	8e\ 8g#	.	4r	.	.	4r	.
.	8B/J) 8f#	.	.	.	.	.	.	.	.	.	.	.	.	.	.	.	.	.	8B/J	.	.	.	8f#/J	.	.	.	.	.	.	8B\J 8f#	.	.	.	.	.	.
*	*	*	*	*	*	*	*	*	*	*	*	*	*	*	*v	*v	*	*	*	*	*	*v	*v	*	*v	*v	*	*	*	*	*	*v	*v	*	*	*
*	*	*	*	*	*	*	*	*	*	*	*	*	*	*	*	*	*v	*v	*v	*	*	*	*	*	*	*	*	*	*	*	*	*
=10	=10	=10	=10	=10	=10	=10	=10	=10	=10	=10	=10	=10	=10	=10	=10	=10	=10	=10	=10	=10	=10	=10	=10	=10	=10	=10	=10	=10	=10	=10
!	!	!	!	!	!	!	!	!	!	!	!	!	!	!	!LO:TX:a:t=//	!	!	!	!	!	!	!	!	!	!	!	!	!	!	!
8EE\ 8E	8B/L 8e 8g#	2.r	.	.	2.r	.	2.r	.	.	(4.b\	Przyj-	.	8E\	.	8E\yy	.	8r	.	8r	.	8r	.	2.r	.	8G#/ 8e	.	2.ryy	.	2.ryy	.
8r	8B/J 8e 8g#	.	.	.	.	.	.	.	.	.	.	.	8r	.	8ryy	.	8E/ 8B	.	8e/	.	8g#/	p	.	.	8r	.	.	.	.	.
*	*	*	*	*	*	*	*	*	*	*	*	*	*rep	*	*	*	*rep	*	*rep	*	*rep	*	*	*	*	*	*	*	*	*
8EE\ 8E	8r	.	.	.	.	.	.	.	.	.	.	.	8E\	.	8E\yy	.	8r	.	8r	.	8r	.	.	.	4r	.	.	.	.	.
8r	8B/ 8e 8g#	.	.	.	.	.	.	.	.	16cc#\LL	.	.	8r	.	8ryy	.	8E/ 8B	.	8e/	.	8g#/	.	.	.	.	.	.	.	.	.
.	.	.	.	.	.	.	.	.	.	16b\JJ)	.	.	.	.	.	.	.	.	.	.	.	.	.	.	.	.	.	.	.	.
*	*	*	*	*	*	*	*	*	*	*	*	*	*Xrep	*	*	*	*Xrep	*	*Xrep	*	*Xrep	*	*	*	*	*	*	*	*	*
*	*	*	*	*	*	*	*	*	*	*	*	*	*rep	*	*	*	*rep	*	*rep	*	*rep	*	*	*	*	*	*	*	*	*
8EE\ 8E	8r	.	.	.	.	.	.	.	.	(8g#/L	-mij	.	8E\	.	8E\yy	.	8r	.	8r	.	8r	.	.	.	4r	.	.	.	.	.
8r	8B/ 8e 8g#	.	.	.	.	.	.	.	.	8e/J)	.	.	8r	.	8ryy	.	8E/ 8B	.	8e/	.	8g#/	.	.	.	.	.	.	.	.	.
*	*	*	*	*	*	*	*	*	*	*	*	*	*Xrep	*	*	*	*Xrep	*	*Xrep	*	*Xrep	*	*	*	*	*	*	*	*	*
=11	=11	=11	=11	=11	=11	=11	=11	=11	=11	=11	=11	=11	=11	=11	=11	=11	=11	=11	=11	=11	=11	=11	=11	=11	=11	=11	=11	=11	=11	=11
*	*	*	*	*	*	*	*	*	*	*2\right	*	*	*	*	*	*	*	*	*	*	*	*	*	*	*	*	*	*	*	*
!	!	!	!	!	!	!	!	!	!	!	!	!	!	!LO:DY:a	!	!LO:DY:a	!	!	!	!	!	!	!	!	!	!	!	!	!	!
8EE\ 8E	8r	2.r	.	.	2.r	.	2.r	.	.	2ee\	Bo-	.	8E\	sf	8E\yy	sfy	8r	.	8r	.	8r	.	2.r	.	2.r	.	2.ryy	.	2.ryy	.
8r	8B/ 8e 8g#	.	.	.	.	.	.	.	.	.	.	.	8r	.	8ryy	.	8E/ 8B	.	8e/	sf	8g#/	sf	.	.	.	.	.	.	.	.
*rep	*rep	*	*	*	*	*	*	*	*	*	*	*	*	*	*	*	*	*	*	*	*	*	*	*	*	*	*	*	*	*
8EE\ 8E	8r	.	.	.	.	.	.	.	.	.	.	.	8E\	.	8E\yy	.	8r	.	8r	.	8r	.	.	.	.	.	.	.	.	.
8r	8B/ 8e 8g#	.	.	.	.	.	.	.	.	.	.	.	8r	.	8ryy	.	8E/ 8B	.	8e/	.	8g#/	.	.	.	.	.	.	.	.	.
*Xrep	*Xrep	*	*	*	*	*	*	*	*	*	*	*	*	*	*	*	*	*	*	*	*	*	*	*	*	*	*	*	*	*
*rep	*rep	*	*	*	*	*	*	*	*	*	*	*	*	*	*	*	*	*	*	*	*	*	*	*	*	*	*	*	*	*
8EE\ 8E	8r	.	.	.	.	.	.	.	.	4b\	-że	.	8E\	.	8E\yy	.	8r	.	8r	.	8r	.	.	.	.	.	.	.	.	.
8r	8B/ 8e 8g#	.	.	.	.	.	.	.	.	.	.	.	8r	.	8ryy	.	8E/ 8B	.	8e/	.	8g#/	.	.	.	.	.	.	.	.	.
*Xrep	*Xrep	*	*	*	*	*	*	*	*	*	*	*	*	*	*	*	*	*	*	*	*	*	*	*	*	*	*	*	*	*
=12	=12	=12	=12	=12	=12	=12	=12	=12	=12	=12	=12	=12	=12	=12	=12	=12	=12	=12	=12	=12	=12	=12	=12	=12	=12	=12	=12	=12	=12	=12
!	!	!	!	!	!	!	!	!	!	!	!	!LO:DY:a	!	!	!	!	!	!	!	!	!	!	!	!	!	!	!	!	!	!
8EE/ 8E	8r	4r	.	.	2.r	.	4.e/	.	.	(4.g#/	tę	<	8E\	.	8E\	.	8r	.	8r	.	8r	.	4r	.	4r	.	2.ryy	.	2.ryy	.
8r	8B/L 8e 8g#	.	.	.	.	.	.	.	.	.	.	.	8r	.	8r	.	8E/L 8B	.	8e/L	.	(8g#'/L	.	.	.	.	.	.	.	.	.
4EE/ 4E	8B/J 8e 8g#	4r	.	.	.	.	.	.	.	.	.	.	8E\	.	8E|>\L	.	8E/J 8B	.	8e/J	.	8g#'/J)	.	8r	.	8r	.	.	.	.	.
!	!	!	!	!	!	!	!	!	!	!	!	!LO:DY:a	!	!	!	!	!	!	!	!	!	!	!	!	!	!	!	!	!	!
.	8g#/L 8b	.	.	.	.	.	8g#/L	.	.	8b/L	.	[ >	8r	.	(8E\	.	(8E/L	.	(8g#/L	.	(8b/L	.	(>8E/L	.	(8g#\L 8b	p	.	.	.	.
!	!	!	!	!LO:DY:a:rj	!	!	!	!	!	!	!	!	!	!	!	!	!	!	!	!	!	!	!	!	!	!	!	!	!	!
8AA\L 8A	8f#/ 8a	(8A\L	o-	p	.	.	8f#/J	.	.	8a/J)	.	.	4r	.	8A\	.	8A/	.	8f#/	.	8a/	.	8A/	.	8f#\ 8a	.	.	.	.	.
8AA#X\J 8A#X	8e/J 8g#	8A#X\J)	.	.	.	.	8e/	.	.	8g#/	o-	]]	.	.	8A#X\J)	.	8A#X/J)	.	8e/J)	.	8g#/J)	.	8A#X/J	.	8e\J 8g#	.	.	.	.	.
=13	=13	=13	=13	=13	=13	=13	=13	=13	=13	=13	=13	=13	=13	=13	=13	=13	=13	=13	=13	=13	=13	=13	=13	=13	=13	=13	=13	=13	=13	=13
*^	*	*	*	*	*	*	*	*	*	*	*	*	*	*	*	*	*	*	*	*	*	*	*^	*	*	*	*	*	*	*
8BB\L	2.BB/	8e/ 8g#	8B\	-fia-	.	2.r	.	8e/	.	.	8g#/	-fia-	.	8BB/	.	8B\	.	8B/L	.	8r	.	8r	.	2.rCC	8B/)	.	8e\) 8g#	.	2.ryy	.	2.ryy	.
8B\	.	8r	8r	.	.	.	.	8r	.	.	8r	.	.	8r	.	8r	.	8B/J	.	8e/	.	8g#/	.	.	8rc	.	8r	.	.	.	.	.
*	*	*	*	*	*	*	*	*	*	*	*	*	*	*rep	*	*	*	*	*	*	*	*	*	*	*	*	*	*	*	*	*	*
8B\	.	2d#/ 2f#	2BB/	-rę	.	.	.	2d#^>/	.	.	2f#^>/	-rę	.	8BB/	.	8BB/	.	8r	.	8r	.	8r	.	.	8d#/	.	8B/ 8f#	.	.	.	.	.
8B\	.	.	.	.	.	.	.	.	.	.	.	.	.	8r	.	8r	.	8B/	.	8d#/	.	8f#/	.	.	8rc	.	(8B'\L 8b	.	.	.	.	.
*	*	*	*	*	*	*	*	*	*	*	*	*	*	*Xrep	*	*	*	*	*	*	*	*	*	*	*	*	*	*	*	*	*	*
*	*	*	*	*	*	*	*	*	*	*	*	*	*	*rep	*	*	*	*	*	*	*	*	*	*	*	*	*	*	*	*	*	*
8B\	.	.	.	.	.	.	.	.	.	.	.	.	.	8BB/	.	8BB/	.	8r	.	8r	.	8r	.	.	4rc	.	8B'\ 8b	.	.	.	.	.
8B\J	.	.	.	.	.	.	.	.	.	.	.	.	.	8r	.	8r	.	8B/	.	8d#/	.	8f#/	.	.	.	.	8B'\J) 8b	.	.	.	.	.
*	*	*	*	*	*	*	*	*	*	*	*	*	*	*Xrep	*	*	*	*	*	*	*	*	*	*	*	*	*	*	*	*	*	*
*v	*v	*	*	*	*	*	*	*	*	*	*	*	*	*	*	*	*	*	*	*	*	*	*	*v	*v	*	*	*	*	*	*	*
!!LO:PB:g=original
=14	=14	=14	=14	=14	=14	=14	=14	=14	=14	=14	=14	=14	=14	=14	=14	=14	=14	=14	=14	=14	=14	=14	=14	=14	=14	=14	=14	=14	=14	=14
8BB/	8r	2.r	.	.	2.r	.	2.r	.	.	8a/	Kto-	.	8BB/	.	8BB/yy	.	8r	.	8r	.	8r	.	2.r	.	2.r	.	2.r	.	2.r	.
8r	8B/ 8d# 8f# 8a	.	.	.	.	.	.	.	.	8f#/	-rą	.	8r	.	8ryy	.	8B\ 8f#	.	8d#/	.	8B/ 8a	.	.	.	.	.	.	.	.	.
*rep	*rep	*	*	*	*	*	*	*	*	*	*	*	*rep	*	*	*	*rep	*	*rep	*	*rep	*	*	*	*	*	*	*	*	*
8BB/	8r	.	.	.	.	.	.	.	.	4.b/	za	.	8BB/	.	8BB/yy	.	8r	.	8r	.	8r	.	.	.	.	.	.	.	.	.
8r	8B/ 8d# 8f# 8a	.	.	.	.	.	.	.	.	.	.	.	8r	.	8ryy	.	8B\ 8f#	.	8d#/	.	8B/ 8a	.	.	.	.	.	.	.	.	.
*Xrep	*Xrep	*	*	*	*	*	*	*	*	*	*	*	*Xrep	*	*	*	*Xrep	*	*Xrep	*	*Xrep	*	*	*	*	*	*	*	*	*
*rep	*rep	*	*	*	*	*	*	*	*	*	*	*	*rep	*	*	*	*rep	*	*rep	*	*rep	*	*	*	*	*	*	*	*	*
8BB/	8r	.	.	.	.	.	.	.	.	.	.	.	8BB/	.	8BB/yy	.	8r	.	8r	.	8r	.	.	.	.	.	.	.	.	.
8r	8B/ 8d# 8f# 8a	.	.	.	.	.	.	.	.	8a/	nas	.	8r	.	8ryy	.	8B\ 8f#	.	8d#/	.	8B/ 8a	.	.	.	.	.	.	.	.	.
*Xrep	*Xrep	*	*	*	*	*	*	*	*	*	*	*	*Xrep	*	*	*	*Xrep	*	*Xrep	*	*Xrep	*	*	*	*	*	*	*	*	*
=15	=15	=15	=15	=15	=15	=15	=15	=15	=15	=15	=15	=15	=15	=15	=15	=15	=15	=15	=15	=15	=15	=15	=15	=15	=15	=15	=15	=15	=15	=15
8EE/ 8E	8r	2.r	.	.	2.r	.	2.r	.	.	8g#/	Kap-	.	8E\	.	8E\yy	.	8r	.	8r	.	8r	.	2.r	.	2.r	.	2.r	.	2.r	.
8r	8B/ 8e 8g#	.	.	.	.	.	.	.	.	8b/	-łan	.	8r	.	8ryy	.	8B\ 8e	.	8e/	.	8B/ 8g#	.	.	.	.	.	.	.	.	.
*rep	*	*	*	*	*	*	*	*	*	*	*	*	*	*	*	*	*	*	*	*	*	*	*	*	*	*	*	*	*	*
!	!	!	!	!	!	!	!	!	!	!	!	!	!	!LO:DY:a	!	!LO:DY:a	!	!	!	!	!	!	!	!	!	!	!	!	!	!
8EE/ 8E	8r	.	.	.	.	.	.	.	.	4.ee\	świę-	.	8E\	<	8E\yy	<	8r	.	8r	.	8r	.	.	.	.	.	.	.	.	.
8r	8B/ 8e 8g#	.	.	.	.	.	.	.	.	.	.	.	8r	.	8ryy	.	8B\ 8e	.	8e/	<	8B/ 8g#	<	.	.	.	.	.	.	.	.
*Xrep	*	*	*	*	*	*	*	*	*	*	*	*	*	*	*	*	*	*	*	*	*	*	*	*	*	*	*	*	*	*
*rep	*	*	*	*	*	*	*	*	*	*	*	*	*	*	*	*	*	*	*	*	*	*	*	*	*	*	*	*	*	*
8EE/ 8E	8r	.	.	.	.	.	.	.	.	.	.	.	8E\	.	8E\yy	.	8r	.	8r	.	8r	.	.	.	.	.	.	.	.	.
8r	8B#X/ 8e 8g#	.	.	.	.	.	.	.	.	8b#X\	-ci	.	8r	[[	8ryy	[[	8B#X/	.	8e/	[[	8g#/	[[	.	.	.	.	.	.	.	.
*Xrep	*	*	*	*	*	*	*	*	*	*	*	*	*	*	*	*	*	*	*	*	*	*	*	*	*	*	*	*	*	*
=16	=16	=16	=16	=16	=16	=16	=16	=16	=16	=16	=16	=16	=16	=16	=16	=16	=16	=16	=16	=16	=16	=16	=16	=16	=16	=16	=16	=16	=16	=16
!	!	!	!	!	!	!	!	!	!	!	!	!	!	!LO:DY:a:rj	!	!LO:DY:a:rj	!	!	!	!	!	!	!	!	!	!	!	!	!	!
8AA/	8r	2.r	.	.	2.r	.	2.r	.	.	8.dd#\	Któ-	.	8AA/	sf	8AA/yy	sf	8r	.	8r	.	8r	.	2.r	.	2.r	.	2.r	.	2.r	.
8r	8c#/ 8e 8f#	.	.	.	.	.	.	.	.	.	.	.	8r	.	8ryy	.	8c#/	sf	8e/	sf	8f#/	sf	.	.	.	.	.	.	.	.
.	.	.	.	.	.	.	.	.	.	16cc#\	-rą	.	.	.	.	.	.	.	.	.	.	.	.	.	.	.	.	.	.	.
8BB/	8r	.	.	.	.	.	.	.	.	8b\	za	.	8BB/	.	8BB/yy	.	8r	.	8r	.	8r	.	.	.	.	.	.	.	.	.
8r	8B/ 8d# 8f# 8a	.	.	.	.	.	.	.	.	8a\	nas	.	8r	.	8ryy	.	8B\ 8f#	.	8d#/	.	8B/ 8a	.	.	.	.	.	.	.	.	.
8BB/	8r	.	.	.	.	.	.	.	.	8.f#/	Kap-	.	8BB/	.	8BB/yy	.	8r	.	8r	.	8r	.	.	.	.	.	.	.	.	.
8r	8B/ 8d# 8f# 8a	.	.	.	.	.	.	.	.	.	.	.	8r	.	8ryy	.	8B\ 8f#	.	8d#/	.	8B/ 8a	.	.	.	.	.	.	.	.	.
.	.	.	.	.	.	.	.	.	.	16b/	-łan	.	.	.	.	.	.	.	.	.	.	.	.	.	.	.	.	.	.	.
=17	=17	=17	=17	=17	=17	=17	=17	=17	=17	=17	=17	=17	=17	=17	=17	=17	=17	=17	=17	=17	=17	=17	=17	=17	=17	=17	=17	=17	=17	=17
*	*	*	*	*	*	*	*	*	*	*	*	*	*	*	*^	*	*^	*	*	*	*	*	*	*	*	*	*	*	*	*
!	!	!	!	!	!	!	!	!	!	!	!	!LO:DY:a	!	!	!	!	!	!	!	!	!	!	!	!	!	!	!	!	!	!	!	!
8EE/ 8E	8r	4r	.	.	2.r	.	2.r	.	.	(8.e/L	świę-	f	8E\	.	4r	8E\	.	8r	4.ryy	.	8r	.	8r	.	2.r	.	4r	.	2.r	.	2.r	.
8r	8B/L 8e 8g#	.	.	.	.	.	.	.	.	.	.	.	8r	.	.	8r	.	8e\L	.	.	8e/L	.	8B/L 8g#	.	.	.	.	.	.	.	.	.
.	.	.	.	.	.	.	.	.	.	32g#/LL	.	.	.	.	.	.	.	.	.	.	.	.	.	.	.	.	.	.	.	.	.	.
.	.	.	.	.	.	.	.	.	.	32b/JJJ)	.	.	.	.	.	.	.	.	.	.	.	.	.	.	.	.	.	.	.	.	.	.
8EE/ 8E	8B/J 8e 8g#	8r	.	.	.	.	.	.	.	8ee\	-ći	.	8E\	.	8r	8E\	.	8e\J	.	.	8e/J	.	8B/J 8g#	.	.	.	8r	.	.	.	.	.
8B\L	8r	(16B\LL	Na-	.	.	.	.	.	.	8r	.	.	8r	.	8B\L	8r	.	8r	8B\L	.	8r	.	8r	.	.	.	8B'/L 8b	.	.	.	.	.
.	.	32c#\L	.	.	.	.	.	.	.	.	.	.	.	.	.	.	.	.	.	.	.	.	.	.	.	.	.	.	.	.	.	.
.	.	32B\JJJ	.	.	.	.	.	.	.	.	.	.	.	.	.	.	.	.	.	.	.	.	.	.	.	.	.	.	.	.	.	.
8G#\	4r	8G#\)	.	.	.	.	.	.	.	4r	.	.	4r	.	8G#\	4r	.	4r	8G#\	.	4r	.	4r	.	.	.	8G#'/ 8g#	.	.	.	.	.
8E\J	.	8E\	-szą	.	.	.	.	.	.	.	.	.	.	.	8E\J	.	.	.	8E\J	.	.	.	.	.	.	.	8E'/J 8e	.	.	.	.	.
*	*	*	*	*	*	*	*	*	*	*	*	*	*	*	*v	*v	*	*	*	*	*	*	*	*	*	*	*	*	*	*	*	*
*	*	*	*	*	*	*	*	*	*	*	*	*	*	*	*	*	*v	*v	*	*	*	*	*	*	*	*	*	*	*	*	*
!!LO:PB:g=original
=18	=18	=18	=18	=18	=18	=18	=18	=18	=18	=18	=18	=18	=18	=18	=18	=18	=18	=18	=18	=18	=18	=18	=18	=18	=18	=18	=18	=18	=18	=18
*	*	*	*	*	*2\right	*	*	*	*	*	*	*	*	*	*	*	*	*	*	*	*	*	*	*	*	*	*	*	*	*
8BB/	8r	2BB/	wzmac-	.	2A\	.	2d#/	wzmac-	.	4.a/	wzmac-	.	8BB/	.	8BB/	.	8r	.	8r	.	8r	mf	2.A\ 2.d#	.	2.BB/ 2.B	.	4.a/	.	(4.aa\	mf
8r	8B/ 8f# 8a	.	.	.	.	.	.	.	.	.	.	.	8r	.	8r	.	8B\ 8f#	.	8d#/	.	8B/ 8a	.	.	.	.	.	.	.	.	.
*rep	*rep	*	*	*	*	*	*	*	*	*	*	*	*rep	*	*rep	*	*rep	*	*rep	*	*rep	*	*	*	*	*	*	*	*	*
8BB/	8r	.	.	.	.	.	.	.	.	.	.	.	8BB/	.	8BB/	.	8r	.	8r	.	8r	.	.	.	.	.	.	.	.	.
8r	8B/ 8f# 8a	.	.	.	.	.	.	.	.	8f#/	-niaj	.	8r	.	8r	.	8B\ 8f#	.	8d#/	.	8B/ 8a	.	.	.	.	.	8f#/L	.	8ff#\L)	.
*Xrep	*Xrep	*	*	*	*	*	*	*	*	*	*	*	*Xrep	*	*Xrep	*	*Xrep	*	*Xrep	*	*Xrep	*	*	*	*	*	*	*	*	*
*rep	*rep	*	*	*	*	*	*	*	*	*	*	*	*rep	*	*rep	*	*rep	*	*rep	*	*rep	*	*	*	*	*	*	*	*	*
8BB/	8r	4BB/	-niaj	.	4A\	.	4d#/	-niaj	.	8b/	wiecz-	.	8BB/	.	8BB/	.	8r	.	8r	.	8r	.	.	.	.	.	8b/	.	(8bb\	.
8r	8B/ 8f# 8a	.	.	.	.	.	.	.	.	8a/	-nie	.	8r	.	8r	.	8B\ 8f#	.	8d#/	.	8B/ 8a	.	.	.	.	.	8a/J	.	8aa\J)	.
*Xrep	*Xrep	*	*	*	*	*	*	*	*	*	*	*	*Xrep	*	*Xrep	*	*Xrep	*	*Xrep	*	*Xrep	*	*	*	*	*	*	*	*	*
=19	=19	=19	=19	=19	=19	=19	=19	=19	=19	=19	=19	=19	=19	=19	=19	=19	=19	=19	=19	=19	=19	=19	=19	=19	=19	=19	=19	=19	=19	=19
*	*^	*	*	*	*	*	*	*	*	*	*	*	*	*	*	*	*	*	*	*	*	*	*	*	*	*	*^	*	*	*
8EE/ 8E	8r	2ryy	4E\	wia-	.	4G#/	.	4e/	wia-	.	8g#/	na-	.	8E\	.	8E\	.	8r	.	8r	.	8r	.	4.G#\ 4.e	.	4.E/ 4.B	.	8g#/	2ryy	.	8gg#'\	.
8r	8B/ 8e 8g#	.	.	.	.	.	.	.	.	.	8b/	-szą	.	8r	.	8r	.	8e\	.	8e/	.	8B/ 8g#	.	.	.	.	.	(8b/L	.	.	(8bb\L	.
8EE/ 8E	8r	.	8E\	-rę	.	8G#/	.	8e/	-rę	.	8e/	wia-	.	8E\	.	8E\	.	8r	.	8r	.	8r	.	.	.	.	.	8e'/J)	.	.	8ee\J)	.
8r	8B/ 8e 8g#	.	8r	.	.	8r	.	8r	.	.	8e/	-rę	.	8r	.	8r	.	8e\	.	8e/	.	8B/ 8g#	.	8r	.	8r	.	8r	.	.	8r	.
!	!	!	!	!	!	!	!	!	!	!	!	!	!LO:DY:a	!	!	!	!	!	!	!	!	!	!	!	!	!	!	!	!	!	!	!
4GG#\ 4G#	8.b/L	[4e\	4r	.	.	8.G#/	.	8.e/	.	.	8.b\	wspie-	<	8G#\L	.	8G#\L	.	8G#/L	.	8e/L	.	8b/L	<	8GG#/L 8G#	<	4r	.	8b/L	8e\L	<	8bb'\L	<
.	.	.	.	.	.	.	.	.	.	.	.	.	.	16r	.	16r	.	16r	.	16r	.	16r	.	16r	.	.	.	16r	16r	.	16r	.
.	16b#X/Jk	.	.	.	.	16G#/	.	16e/	.	.	16b#X\	-raj	[[	16G#\Jk	.	16G#\Jk	.	16G#/Jk	.	16e/Jk	.	16b#X/Jk	[[	16GG#/Jk 16G#	[[	.	.	16b#X/Jk	16e\Jk	.	16bb#X|>\Jk	[[
=20	=20	=20	=20	=20	=20	=20	=20	=20	=20	=20	=20	=20	=20	=20	=20	=20	=20	=20	=20	=20	=20	=20	=20	=20	=20	=20	=20	=20	=20	=20	=20	=20
!	!	!	!	!	!	!	!	!	!	!	!	!	!LO:DY:a	!	!	!	!	!	!	!	!	!	!	!	!	!	!	!	!	!	!	!
4.AA\ 4.A	4dd#/	4.e\]	2.r	.	.	4A/	.	4e/	.	.	4dd#\	wszyst-	>	4.A\	.	4.A\	.	4.A/	.	4.e/	.	(4dd#\	>	4.AA/ 4.A	>	4.E/ 4.e	.	(>4dd#/	4.e\	[ >	(4ddd#\	>
.	8cc#/	.	.	.	.	8A/	.	8e/	.	.	8cc#\	-Kie	.	.	.	.	.	.	.	.	.	8cc#\)	.	.	.	.	.	8cc#/)	.	]	8ccc#\)	]
8r	8r	8ryy	.	.	.	8r	.	8r	.	.	8r	.	]	8r	.	8r	.	8r	.	8r	.	8r	]	8r	]	8r	.	8r	8r	.	8r	.
!	!	!	!	!	!	!	!	!	!	!	!	!	!LO:DY:a	!	!	!	!	!	!	!	!	!	!	!	!	!	!	!	!	!	!	!
4FF##X/ 4F##X	8.a#X/L	4e\	.	.	.	8.F##X/	.	8.e/	.	.	8.a#X/	dob-	<	8F##X\L	.	8F##X\L	.	8F##X/L	.	8e/L	.	8a#X/L	<	8FF##X/L 8F##X	<	4r	.	8a#X/L	8e\L	<	8aa#X'\L	<
.	.	.	.	.	.	.	.	.	.	.	.	.	.	16r	.	16r	.	16r	.	16r	.	16r	.	16r	.	.	.	16r	16r	.	16r	.
.	16a#/Jk	.	.	.	.	16F##/	.	16e/	.	.	16a#/	-re	[[	16F##\Jk	.	16F##\Jk	.	16F##/Jk	.	16e/Jk	.	16a#/Jk	[[	16FF##/Jk 16F##	[[	.	.	16a#/Jk	16e\Jk	.	16aa#|>\Jk	[[
=21	=21	=21	=21	=21	=21	=21	=21	=21	=21	=21	=21	=21	=21	=21	=21	=21	=21	=21	=21	=21	=21	=21	=21	=21	=21	=21	=21	=21	=21	=21	=21	=21
!	!	!	!	!	!	!	!	!	!	!	!	!	!LO:DY:a	!	!	!	!	!	!	!	!	!	!	!	!	!	!	!	!	!	!	!
4.GG#/ 4.G#	4cc#/	4.e\	2.r	.	.	4G#/	.	4e/	.	.	4cc#\	chę-	>	4.G#\	.	4.G#\	.	4.G#/	.	4.e/	.	(4cc#\	>	4.GG#/ 4.G#	>	4.E/ 4.e	.	(4cc#/	4.e\	[ >	(4ccc#\	>
.	8b/	.	.	.	.	8G#/	.	8e/	.	.	8b\	-ći	.	.	.	.	.	.	.	.	.	8b\)	.	.	.	.	.	8b/)	.	]	8bb\)	]
8r	8r	8r	.	.	.	8r	.	8r	.	.	8r	.	]	8r	.	8r	.	8r	.	8r	.	8r	]	8r	]	8r	.	8r	4.ryy	.	8r	.
4C#\ 4G#	8.ee/L	4e\	.	.	.	4r	.	4r	.	.	8.ee\	wspie-	.	4C#^/	.	4C#^/	.	4G#^/	.	4e^/	.	8.ee\L	.	4r	.	4r	.	4r	.	.	4r	.
.	16g#/Jk	.	.	.	.	.	.	.	.	.	16g#/	-raj	.	.	.	.	.	.	.	.	.	16g#\Jk	.	.	.	.	.	.	.	.	.	.
*	*v	*v	*	*	*	*	*	*	*	*	*	*	*	*	*	*	*	*	*	*	*	*	*	*	*	*	*	*v	*v	*	*	*
=22	=22	=22	=22	=22	=22	=22	=22	=22	=22	=22	=22	=22	=22	=22	=22	=22	=22	=22	=22	=22	=22	=22	=22	=22	=22	=22	=22	=22	=22	=22
8AA\ 8A	8r	2.r	.	.	2.r	.	2.r	.	.	4f#|</	wszyst-	.	8AA/	p	8AA/yy	py	8r	.	8r	.	8r	p	2.r	.	2.r	.	2.r	.	2.r	.
8r	8c#/ 8e 8f#	.	.	.	.	.	.	.	.	.	.	.	8r	.	8ryy	.	8A/	.	8c#/ 8e	.	8f#/	.	.	.	.	.	.	.	.	.
8AA\ 8A	8r	.	.	.	.	.	.	.	.	8f#|</	-Kie	.	8AA/	.	8AA/yy	.	8r	.	8r	.	8r	.	.	.	.	.	.	.	.	.
8r	8c#/ 8e 8f#	.	.	.	.	.	.	.	.	16r	.	.	8r	.	8ryy	.	8A/	.	8c#/ 8e	.	8f#/	.	.	.	.	.	.	.	.	.
.	.	.	.	.	.	.	.	.	.	(16cc#/KL	do-	.	.	.	.	.	.	.	.	.	.	.	.	.	.	.	.	.	.	.
4BB\ 4B	8r	.	.	.	.	.	.	.	.	8.b/J)	.	.	8BB/	.	8BB/yy	.	8r	.	8r	.	8r	.	.	.	.	.	.	.	.	.
.	8d#/ 8f# 8a	.	.	.	.	.	.	.	.	.	.	.	8r	.	8ryy	.	8B\ 8f#	.	8d#/	.	8B/ 8a	.	.	.	.	.	.	.	.	.
.	.	.	.	.	.	.	.	.	.	16a|</	-bre	.	.	.	.	.	.	.	.	.	.	.	.	.	.	.	.	.	.	.
!!LO:PB:g=original
=23	=23	=23	=23	=23	=23	=23	=23	=23	=23	=23	=23	=23	=23	=23	=23	=23	=23	=23	=23	=23	=23	=23	=23	=23	=23	=23	=23	=23	=23	=23
*	*	*	*	*	*	*	*	*	*	*	*	*	*	*	*	*	*	*	*	*	*	*	*	*	*^	*	*	*	*	*
8EE/ 8E	8r	4r	.	.	4r	.	4r	.	.	(8.f##X^>/L	chę-	.	8E\	.	8E\yy	.	8r	.	8r	.	8r	.	4r	.	4r	2ryy	.	4r	.	4r	.
8r	8B/ 8e 8g#	.	.	.	.	.	.	.	.	.	.	.	8r	.	8ryy	.	8B\ 8e	.	8e/	.	8B/ 8g#	.	.	.	.	.	.	.	.	.	.
.	.	.	.	.	.	.	.	.	.	16g#/Jk)	.	.	.	.	.	.	.	.	.	.	.	.	.	.	.	.	.	.	.	.	.
*	*	*	*	*	*	*	*	*	*	*	*	*	*	*	*	*	*	*	*rep	*	*rep	*	*	*	*	*	*	*	*	*	*
8EE/ 8E	8r	4r	.	.	4r	.	4r	.	.	4g#/	-ći,	.	8E\	.	8E\yy	.	8r	.	8r	.	8r	.	4r	.	4r	.	.	4r	.	4r	.
8r	8B/ 8e 8g#	.	.	.	.	.	.	.	.	.	.	.	8r	.	8ryy	.	8B\ 8e	.	8e/	.	8B/ 8g#	.	.	.	.	.	.	.	.	.	.
*	*	*	*	*	*	*	*	*	*	*	*	*	*	*	*	*	*	*	*Xrep	*	*Xrep	*	*	*	*	*	*	*	*	*	*
*	*	*	*	*	*	*	*	*	*	*	*	*	*	*	*	*	*	*	*rep	*	*	*	*	*	*	*	*	*	*	*	*
!	!	!	!	!	!	!	!	!	!	!	!	!	!	!	!	!	!	!	!	!	!	!	!	!	!	!	!LO:DY:rj	!	!	!	!LO:DY:rj
8CC#/ 8C#	8r	8.C#/	wspie-	.	8.G#/	.	8.e/	.	.	8.ee\	wspie-	.	8C#/	sf	8C#/yy	sfy	8r	.	8r	.	8r	.	8.C#\L 8.c#	.	8.e/L	8.e\L	f	8.g#\L 8.ee	.	8.eee\L	f
!	!	!	!	!	!	!	!	!	!	!	!	!	!	!	!	!	!	!	!	!	!	!LO:DY:rj	!	!	!	!	!	!	!	!	!
8r	8c#/ 8e 8g#	.	.	.	.	.	.	.	.	.	.	.	8r	.	8ryy	.	8c#\ 8e	.	8e/	.	8c#/ 8g#	sf	.	.	.	.	.	.	.	.	.
.	.	16C#/	-raj	.	16G#/	.	16e/	.	.	16g#/	-raj	.	.	.	.	.	.	.	.	.	.	.	16C#\Jk 16c#	.	16e/Jk	16e\Jk	.	16e\Jk 16g#	.	16gg#\Jk	.
*	*	*	*	*	*	*	*	*	*	*	*	*	*	*	*	*	*	*	*Xrep	*	*	*	*	*	*	*	*	*	*	*	*
=24	=24	=24	=24	=24	=24	=24	=24	=24	=24	=24	=24	=24	=24	=24	=24	=24	=24	=24	=24	=24	=24	=24	=24	=24	=24	=24	=24	=24	=24	=24	=24
*	*	*	*	*	*	*	*	*	*	*	*	*	*	*	*	*	*	*	*	*	*	*	*^	*	*	*	*	*	*	*	*
8AAA/ 8AA	8r	4AA/	wszyst-	.	4A/	.	4c#/	.	.	(16f#/LL	wszyst-	.	8AA/	.	8AA/yy	.	8r	.	8r	.	8r	.	2.c#/	(2A\	p	(2f#/	2.e\	p	8c#/ 8f#	.	8ff#\	.
.	.	.	.	.	.	.	.	.	.	16e#X/	.	.	.	.	.	.	.	.	.	.	.	.	.	.	.	.	.	.	.	.	.	.
!	!	!	!	!	!	!	!	!	!	!	!	!	!	!LO:DY:a	!	!LO:DY:a	!	!	!	!	!	!	!	!	!	!	!	!	!	!	!	!
8r	8c#/ 8e 8f#	.	.	.	.	.	.	.	.	16f#/	.	.	8r	<	8ryy	<	8c#\	<	8e/	.	8f#/	.	.	.	<	.	.	.	8r	.	8r	.
.	.	.	.	.	.	.	.	.	.	16g#/JJ)	.	.	.	.	.	.	.	.	.	.	.	.	.	.	.	.	.	.	.	.	.	.
8AAA/ 8AA	8r	8AA/	-Kie	.	8A/	.	8c#/	.	.	(16a/LL	-Kie	.	8AA/	.	8AA/yy	.	8r	.	8r	.	8r	<	.	.	.	.	.	<	4r	.	4r	.
.	.	.	.	.	.	.	.	.	.	16g#/	.	.	.	.	.	.	.	.	.	.	.	.	.	.	.	.	.	.	.	.	.	.
8r	8c#/ 8e 8f#	8r	.	.	8r	.	8r	.	.	16a/	.	.	8r	.	8ryy	.	8c#\	.	8e/	.	8f#/	.	.	.	.	.	.	.	.	.	.	.
.	.	.	.	.	.	.	.	.	.	16b/JJ)	.	.	.	.	.	.	.	.	.	.	.	.	.	.	.	.	.	.	.	.	.	.
4AAA#X/ 4AA#X	8r	4r	.	.	4r	.	4r	.	.	(16cc#\LL	do-	.	4AA#X/	[[	4AA#X/yy	[[	8r	.	8r	.	8r	.	.	4A#X\)	.	4gX/)	.	.	4r	.	4r	.
.	.	.	.	.	.	.	.	.	.	16dd#\	.	.	.	.	.	.	.	.	.	.	.	.	.	.	.	.	.	.	.	.	.	.
.	8c#/ 8e 8gn	.	.	.	.	.	.	.	.	16ee\JJ)	.	.	.	.	.	.	8c#\	[[	8e/	.	8gn/	[[	.	.	.	.	.	.	.	.	.	.
.	.	.	.	.	.	.	.	.	.	16cc#\	-bre	.	.	.	.	.	.	.	.	.	.	.	.	.	[[	.	.	[[	.	.	.	.
=25	=25	=25	=25	=25	=25	=25	=25	=25	=25	=25	=25	=25	=25	=25	=25	=25	=25	=25	=25	=25	=25	=25	=25	=25	=25	=25	=25	=25	=25	=25	=25	=25
!	!	!	!	!	!	!	!	!	!	!	!	!	!	!	!	!	!	!	!	!	!	!	!	!	!	!	!	!LO:DY:rj	!	!	!	!
8BBB/ 8BB	8r	2BB/	do-	.	2G#/	.	2e/	.	.	8.b\	dob-	.	8BB/	.	8BB/yy	.	8B/	.	8e/	.	8B/ 8g#X	.	8B/	8B\	.	8g#/	8e\	f	4r	.	4r	.
8r	8B/ 8e 8g#X	.	.	.	.	.	.	.	.	.	.	.	8r	.	8ryy	.	8r	.	8r	.	8r	.	8r	2ryy	.	8r	8r	.	.	.	.	.
.	.	.	.	.	.	.	.	.	.	16ee\	-re	.	.	.	.	.	.	.	.	.	.	.	.	.	.	.	.	.	.	.	.	.
*rep	*	*	*	*	*	*	*	*	*	*	*	*	*	*	*	*	*	*	*	*	*	*	*	*	*	*	*	*	*	*	*	*
!	!	!	!	!	!	!	!	!	!	!	!	!	!	!LO:DY:rj	!	!LO:DY:rj	!	!LO:DY:rj	!	!	!	!	!	!	!	!	!	!	!	!	!	!LO:DY:rj
8BBB/ 8BB	8r	.	.	.	.	.	.	.	.	4gg#\	dob-	.	8B\	f	8B\yy	fy	8B\ 8g#	f	8g#\ 8ee	.	8b\ 8gg#	f	4B\	.	.	(4g#/	4e\	.	8b\ 8gg#	.	8eee\	f
8r	8B/ 8e 8g#	.	.	.	.	.	.	.	.	.	.	.	8r	.	8ryy	.	8r	.	8r	.	8r	.	.	.	.	.	.	.	8r	.	8r	.
*Xrep	*	*	*	*	*	*	*	*	*	*	*	*	*	*	*	*	*	*	*	*	*	*	*	*	*	*	*	*	*	*	*	*
*rep	*	*	*	*	*	*	*	*	*	*	*	*	*	*	*	*	*	*	*	*	*	*	*	*	*	*	*	*	*	*	*	*
8BBB/ 8BB	8r	4BB/	-bre	.	4A/	.	4d#/	.	.	4ff#\	-re	.	8BB/	.	8BB/yy	.	8B\ 8g#	.	8f#\ 8dd#	.	8b\ 8ff#	.	4BB\ 4A	.	.	4B/) 4f#	4ryy	.	8a\ 8ff#	.	8ddd#\	.
8r	8B/ 8d# 8f# 8a	.	.	.	.	.	.	.	.	.	.	.	8r	.	8ryy	.	8r	.	8r	.	8r	.	.	8ryy	.	.	.	.	8r	.	8r	.
*Xrep	*	*	*	*	*	*	*	*	*	*	*	*	*	*	*	*	*	*	*	*	*	*	*	*	*	*	*	*	*	*	*	*
*	*	*	*	*	*	*	*	*	*	*	*	*	*	*	*	*	*	*	*	*	*	*	*v	*v	*	*	*	*	*	*	*	*
*	*	*	*	*	*	*	*	*	*	*	*	*	*	*	*	*	*	*	*	*	*	*	*	*	*v	*v	*	*	*	*	*
!!LO:PB:g=original
=26	=26	=26	=26	=26	=26	=26	=26	=26	=26	=26	=26	=26	=26	=26	=26	=26	=26	=26	=26	=26	=26	=26	=26	=26	=26	=26	=26	=26	=26	=26
8EE/ 8E	8r	4E\	chę-	.	4G#/	.	4e/	.	.	(16ee\LL	chę-	.	8E\	.	8E\yy	.	8B\ 8g#	.	8g#\ 8ee	.	8ee\	.	8E\ 8G#	.	8G#/ 8e	.	8g#\ 8ee	.	8eee\	.
.	.	.	.	.	.	.	.	.	.	16b\	.	.	.	.	.	.	.	.	.	.	.	.	.	.	.	.	.	.	.	.
8r	8B/L 8e 8g#	.	.	.	.	.	.	.	.	16g#\	.	.	8r	.	8ryy	.	8r	.	8r	.	8r	.	8r	.	8r	.	8r	.	8r	.
.	.	.	.	.	.	.	.	.	.	16b\JJ)	.	.	.	.	.	.	.	.	.	.	.	.	.	.	.	.	.	.	.	.
!	!	!	!	!	!	!	!	!	!	!	!	!	!	!	!	!	!	!	!	!	!LO:TX:b:t=sec	!	!	!	!	!	!	!	!	!
8EE/ 8E	8B/J 8e 8g#	8E\	-ći,	.	8G#/	.	8e/	.	.	8e/	-ci	.	8E\	.	8E\yy	.	8E\ 8B 8g#	.	8e\ 8b 8gg#	.	8eee\	.	8E\ 8B	.	8G#/ 8e	.	8g#^\ 8ee	.	8eee\	.
8r	8r	8r	.	.	8r	.	8r	.	.	8r	.	.	8r	.	8ryy	.	8r	.	8r	.	8r	.	8r	.	8r	.	8r	.	8r	.
!	!	!	!	!	!	!	!	!	!	!	!	!	!	!	!	!	!	!	!	!LO:DY:a:rj	!	!	!	!	!	!	!	!	!	!
8G#\L	(8g#/L	8G#\	Kę-	.	4r	.	8g#/	Kę-	.	4r	.	.	(8G#\L	.	(8G#\Lyy	.	4r	.	(8g#/L	mf	4r	.	4r	.	4r	.	4r	.	4r	.
8F#\J	8f#/J)	8F#\	-dy	.	.	.	8f#/	-dy	.	.	.	.	8F#\J)	.	8F#\J)yy	.	.	.	8f#/J)	.	.	.	.	.	.	.	.	.	.	.
=27	=27	=27	=27	=27	=27	=27	=27	=27	=27	=27	=27	=27	=27	=27	=27	=27	=27	=27	=27	=27	=27	=27	=27	=27	=27	=27	=27	=27	=27	=27
!	!	!	!	!	!	!	!	!	!	!	!	!	!	!LO:HP:a	!	!LO:HP:a	!	!	!	!	!	!	!	!	!	!	!	!	!	!
4.E\	(4.e/	4.E\	Two-	.	2.r	.	4.e/	Two-	.	2.r	.	.	(4.E\	<	(4.E\yy	<	2.r	.	(4.e/	.	2.r	.	2.r	.	2.r	.	2.r	.	2.r	.
!	!	!	!	!LO:DY:a	!	!	!	!	!	!	!	!	!	!	!	!	!	!	!	!	!	!	!	!	!	!	!	!	!	!
8D#\	8d#/)	8D#\	-je	<	.	.	8d#/	-je	.	.	.	.	8D#\)	.	8D#\)yy	.	.	.	8d#/)	.	.	.	.	.	.	.	.	.	.	.
*Xtuplet	*tuplet	*Xtuplet	*	*	*	*	*Xtuplet	*	*	*	*	*	*	*	*	*	*	*	*	*	*	*	*	*	*	*	*	*	*	*
!	!LO:TUP:b:problem:klamra łukowa, przecinek zamiast numeru	!LO:TUP:problem:brak klamry	!	!	!	!	!LO:TUP:problem:brak klamry	!	!	!	!	!	!LO:TUP:a:problem:klamra łukowa, przecinek zamiast numeru	!LO:HP:a	!LO:TUP:a:problem:klamra łukowa, przecinek zamiast numeru	!LO:HP:a	!	!	!LO:TUP:a:problem:klamra łukowa	!	!	!	!	!	!	!	!	!	!	!
12E\L	12e/L	12E\L	słoń-	.	.	.	12e/L	słoń-	.	.	.	.	12E\L	[ >	12E\Lyy	[ >	.	.	12e/L	.	.	.	.	.	.	.	.	.	.	.
!	!	!	!	!LO:DY:a	!	!	!	!	!	!	!	!	!	!	!	!	!	!	!	!	!	!	!	!	!	!	!	!	!	!
12G#\	12g#/	12G#\J	.	[ >	.	.	12g#/J	.	.	.	.	.	12G#\	.	12G#\yy	.	.	.	12g#/	.	.	.	.	.	.	.	.	.	.	.
12F#\J	12f#/J	12F#\	-ce	]]	.	.	12f#/	-ce	.	.	.	.	12F#\J	]]	12F#\Jyy	]]	.	.	12f#/J	.	.	.	.	.	.	.	.	.	.	.
=28	=28	=28	=28	=28	=28	=28	=28	=28	=28	=28	=28	=28	=28	=28	=28	=28	=28	=28	=28	=28	=28	=28	=28	=28	=28	=28	=28	=28	=28	=28
*	*^	*	*	*	*	*	*	*	*	*	*	*	*	*	*	*	*	*	*	*	*	*	*	*	*	*	*^	*	*	*
(4D#/	(4d#/	2ryy	4D#/	świe-	.	4r	.	4d#/	świe-	.	4r	.	.	(4D#/	.	(4D#/yy	.	4r	.	(4d#/	.	4r	.	4r	.	2.r	.	4r	2ryy	.	4r	.
8BB/)	8B/)	.	8BB/	-ći	.	4r	.	8B/	-ci	.	4r	.	.	8BB/)	.	8BB/)yy	.	4r	.	8B/)	.	4r	.	4r	.	.	.	4r	.	.	4r	.
8r	8r	.	8r	.	.	.	.	8r	.	.	.	.	.	8r	.	8ryy	.	.	.	8r	.	.	.	.	.	.	.	.	.	.	.	.
!	!	!	!	!	!LO:DY:a:rj	!	!	!	!	!	!	!	!LO:DY:a	!	!	!	!	!	!LO:DY:rj	!	!	!	!	!	!LO:DY:rj	!	!	!	!	!	!	!LO:DY:rj
4BB/	8.b/L	4B\ 4d#	8.BB/	Tam	f	8.B\	.	8.d#/	.	.	8.b/	Tam	f	8.BB/L	.	8.BB/Lyy	.	8.B|</L	f	8.d#'/L	.	8.b|</L	f	8.BB'\L 8.B	f	.	.	8.b/L	8.d#\L	.	8.bb\L	f
.	16f#/Jk 16a	.	16BB/	gdzie	.	16d#\	.	16f#/	.	.	16a/	gdzie	.	16BB/Jk	.	16BB/Jkyy	.	16d#|</Jk	.	16f#|</Jk	.	16a|</Jk	.	16BB|>\Jk 16d#	.	.	.	16a/Jk	16f#\Jk	.	16aa\Jk	.
*	*v	*v	*	*	*	*	*	*	*	*	*	*	*	*	*	*	*	*	*	*	*	*	*	*	*	*	*	*	*	*	*	*
=29	=29	=29	=29	=29	=29	=29	=29	=29	=29	=29	=29	=29	=29	=29	=29	=29	=29	=29	=29	=29	=29	=29	=29	=29	=29	=29	=29	=29	=29	=29	=29
*	*	*	*	*	*	*	*	*	*	*	*	*	*	*	*	*	*	*	*	*	*	*	*^	*	*	*	*	*	*	*	*
*	*	*	*	*	*	*	*	*	*	*	*	*	*2\right	*	*2\right	*	*	*	*	*	*	*	*	*	*	*	*	*	*	*	*	*
!	!	!	!	!	!	!	!	!	!	!	!	!	!	!	!	!	!LO:N:vis=2.	!	!	!	!	!	!	!	!	!	!	!	!	!	!	!
8EE/ 8E	8r	4.E\	ludz-	.	4.e\	.	4.e/	.	.	4.gn/	ludz-	.	2E\	.	2E\yy	.	(4.e\	.	2e/	.	(4.gn/	.	(4.e/	2E\	.	4r	.	4.gX/	2e\	.	(4.ggn\	.
8r	8B/ 8e 8gn	.	.	.	.	.	.	.	.	.	.	.	.	.	.	.	.	.	.	.	.	.	.	.	.	.	.	.	.	.	.	.
8EE/ 8E	8r	.	.	.	.	.	.	.	.	.	.	.	.	.	.	.	.	.	.	.	.	.	.	.	<	4r	.	.	.	.	.	.
8r	8B/ 8e 8g	8E\	-Kie	.	8Gn/	.	8e/	.	.	8e/	-kie	.	.	.	.	.	8Gn/)	.	.	.	8e/)	.	8Gn/)	.	.	.	.	8e/	.	.	8ee\)	.
4CCn/ 4Cn	8r	8.Cn/	ser-	.	8.G/	.	8.e/	.	.	8.g/	ser-	.	8.Cn/L	.	8.Cn/Lyy	.	8.cn|>\L	.	8.e|</L	.	8.g|</L	.	8.Cn\L 8.cn	4ryy	.	8.e\L	.	8.g/L	8.d#\L	.	8.gg'\L	.
.	8e/ 8f# 8a	.	.	.	.	.	.	.	.	.	.	.	.	.	.	.	.	.	.	.	.	.	.	.	.	.	.	.	.	.	.	.
.	.	16C/	-ca	.	16A/	.	16e/	.	.	16a/	-ca	.	16C/Jk	.	16C/Jkyy	.	16c|>\Jk	.	16e|</Jk	.	16a|</Jk	.	16C\Jk 16c	.	[[	16e\Jk 16f#	.	16a/Jk	16e\Jk	.	16aa|>\Jk	.
*	*	*	*	*	*	*	*	*	*	*	*	*	*	*	*	*	*	*	*	*	*	*	*v	*v	*	*	*	*	*	*	*	*
!!LO:PB:g=original
=30	=30	=30	=30	=30	=30	=30	=30	=30	=30	=30	=30	=30	=30	=30	=30	=30	=30	=30	=30	=30	=30	=30	=30	=30	=30	=30	=30	=30	=30	=30	=30
8BBB/ 8BB	8r	4BB/	bi-	.	4B\	.	4d#/	.	.	4b/	bi-	.	8BB/	sf	8BB/yy	sfy	8r	.	8r	.	8r	.	4.BB\ 4.B	.	4.B^/ 4.f#	.	(4b/	4.d#\	.	(4bb^\	.
8r	8d#/ 8f# 8b	.	.	.	.	.	.	.	.	.	.	.	8r	.	8ryy	.	8B\ 8f#	.	8d#/	sf	8b/	sf	.	.	.	.	.	.	.	.	.
*	*rep	*	*	*	*	*	*	*	*	*	*	*	*	*	*	*	*	*	*	*	*	*	*	*	*	*	*	*	*	*	*
8BB\ 8B	8r	8BB/	-ią	.	8B\	.	8d#/	.	.	8f#/	-ią	.	8B\	.	8B\yy	.	8r	.	8r	.	8r	.	.	.	.	.	8f#/)	.	.	8ff#\)	.
8r	8d#/ 8f# 8b	8r	.	.	8r	.	8r	.	.	8r	.	.	8r	.	8ryy	.	8B\ 8f#	.	8d#/	.	8b/	.	8r	.	8r	.	8r	4.ryy	.	8r	.
*	*Xrep	*	*	*	*	*	*	*	*	*	*	*	*	*	*	*	*	*	*	*	*	*	*	*	*	*	*	*	*	*	*
*	*rep	*	*	*	*	*	*	*	*	*	*	*	*rep	*	*	*	*	*	*	*	*	*	*	*	*	*	*	*	*	*	*
8BB\ 8B	8r	8.B\	Niech	.	8.B\	.	8.d#/	.	.	8.b/	Niech	.	8B\	.	8B\yy	.	8r	.	8r	.	8r	.	4r	.	4r	.	4r	.	.	4r	.
8r	8d#/ 8f# 8b	.	.	.	.	.	.	.	.	.	.	.	8r	.	8ryy	.	8B\ 8f#	.	8d#/	.	8b/	.	.	.	.	.	.	.	.	.	.
.	.	16B\	Cię	.	16d#\	.	16f#/	.	.	16b/	Cię	.	.	.	.	.	.	.	.	.	.	.	.	.	.	.	.	.	.	.	.
*	*Xrep	*	*	*	*	*	*	*	*	*	*	*	*Xrep	*	*	*	*	*	*	*	*	*	*	*	*	*	*	*	*	*	*
=31	=31	=31	=31	=31	=31	=31	=31	=31	=31	=31	=31	=31	=31	=31	=31	=31	=31	=31	=31	=31	=31	=31	=31	=31	=31	=31	=31	=31	=31	=31	=31
*	*	*	*	*	*	*	*	*	*	*	*	*	*	*	*	*	*	*	*	*	*	*	*	*	*^	*	*	*	*	*	*
8AA\ 8A	8r	4A\	zna-	.	4e\	.	4f#/	.	.	4ccn^<\	zna-	.	8An\	sf	8An\yy	sfy	8r	.	8r	.	8r	.	(>(>4AA^<\ 4A	.	4f#^</	4c#\	.	(4ccX/	4f#\	.	(4cccn^\	.
!	!	!	!	!	!	!	!	!	!	!	!	!	!	!	!	!	!	!	!	!	!	!LO:DY:rj	!	!	!	!	!	!	!	!	!	!
8r	8d#/ 8f# 8ccn	.	.	.	.	.	.	.	.	.	.	.	8r	.	8ryy	.	8A\ 8f#	.	8d#/	.	8ccn\	sf	.	.	.	.	.	.	.	.	.	.
8GGn\ 8Gn	8r	8Gn\	-ią	.	8e\	.	8gn/	.	.	8b\	-ią	.	8Gn\	.	8Gn\yy	.	8r	.	8r	.	8r	.	8GGn\)) 8Gn	.	8e/	8e\	.	8b/)	8gX\	.	8bb\)	.
8r	8e/ 8b	8r	.	.	8r	.	8r	.	.	8r	.	.	8r	.	8ryy	.	8Gn\ 8e	.	8e/	.	8b\	.	8r	.	8r	8r	.	8r	4.ryy	.	8r	.
8FF#\ 8F#	8r	8.F#\	Two-	.	8.B\	.	8.d#/	.	.	8.b\	Two-	.	8F#\	.	8F#\yy	.	8r	.	8r	.	8r	.	4r	.	4r	4r	.	4r	.	.	4r	.
8r	8B/ 8d# 8a	.	.	.	.	.	.	.	.	.	.	.	8r	.	8ryy	.	8B\ 8f#	.	8d#/	.	8a/	.	.	.	.	.	.	.	.	.	.	.
.	.	16F#\	-je	.	16B\	.	16d#/	.	.	16a\	-je	.	.	.	.	.	.	.	.	.	.	.	.	.	.	.	.	.	.	.	.	.
*	*	*	*	*	*	*	*	*	*	*	*	*	*	*	*	*	*	*	*	*	*	*	*	*	*v	*v	*	*	*	*	*	*
*	*	*	*	*	*	*	*	*	*	*	*	*	*	*	*	*	*	*	*	*	*	*	*	*	*	*	*v	*v	*	*	*
=32	=32	=32	=32	=32	=32	=32	=32	=32	=32	=32	=32	=32	=32	=32	=32	=32	=32	=32	=32	=32	=32	=32	=32	=32	=32	=32	=32	=32	=32	=32
8EE/ 8E	8r	4E\	dzie-	.	4B\	.	(8.d#/L	.	.	(8.f#^>/L	dzie-	.	8E\	.	8E\yy	.	8r	.	8r	.	8r	.	4.EE^>/ 4.E	.	4.E^\ 4.e	.	(8.d#/L 8.f#	.	(8.ff#\L	.
8r	8B/ 8e 8gn	.	.	.	.	.	.	.	.	.	.	.	8r	.	8ryy	.	8B\ 8e	.	8e/	.	8gn/	.	.	.	.	.	.	.	.	.
.	.	.	.	.	.	.	16e/Jk)	.	.	16gn/Jk)	.	.	.	.	.	.	.	.	.	.	.	.	.	.	.	.	16e/Jk) 16gX	.	16ggn\Jk	.
*	*	*	*	*	*	*	*	*	*	*	*	*	*	*	*	*	*rep	*	*rep	*	*rep	*	*	*	*	*	*	*	*	*
8EE/ 8E	8r	8E\	-ći	.	8B\	.	8e/	.	.	8g/	-ći	.	8E\	.	8E\yy	.	8r	.	8r	.	8r	.	.	.	.	.	8e/ 8g	.	8gg\)	.
8r	8B/ 8e 8g	8r	.	.	8r	.	8r	.	.	8r	.	.	8r	.	8ryy	.	8B\ 8e	.	8e/	.	8g/	.	8r	.	8r	.	8r	.	8r	.
*	*	*	*	*	*	*	*	*	*	*	*	*	*	*	*	*	*Xrep	*	*Xrep	*	*Xrep	*	*	*	*	*	*	*	*	*
*	*	*	*	*	*	*	*	*	*	*	*	*	*	*	*	*	*	*	*rep	*	*rep	*	*	*	*	*	*	*	*	*
8CCn/ 8Cn	8r	8.Cn/	Niech	.	8.cn\	.	8.e/	.	.	8.ee\	Niech	.	8Cn/	.	8Cn/yy	.	8r	.	8r	.	8r	.	4r	.	4r	.	4r	.	4r	.
8r	8cn/ 8e 8g	.	.	.	.	.	.	.	.	.	.	.	8r	.	8ryy	.	8cn\ 8e	.	8e/	.	8g/	.	.	.	.	.	.	.	.	.
.	.	16C/	iak	.	16c\	.	16e/	.	.	16e/	iak	.	.	.	.	.	.	.	.	.	.	.	.	.	.	.	.	.	.	.
*	*	*	*	*	*	*	*	*	*	*	*	*	*	*	*	*	*	*	*Xrep	*	*Xrep	*	*	*	*	*	*	*	*	*
=33	=33	=33	=33	=33	=33	=33	=33	=33	=33	=33	=33	=33	=33	=33	=33	=33	=33	=33	=33	=33	=33	=33	=33	=33	=33	=33	=33	=33	=33	=33
*	*	*	*	*	*	*	*	*	*	*	*	*	*	*	*	*	*	*	*	*	*	*	*	*	*^	*	*	*	*	*
8AAA/ 8AA	8r	4AA/	bra-	.	4cn\	.	4e/	.	.	8.f#/L	bra-	.	8AA/	.	8AA/yy	.	8r	.	8r	.	8r	.	4r	.	4r	2ryy	.	4r	.	4r	.
8r	8cn/ 8e 8f#	.	.	.	.	.	.	.	.	.	.	.	8r	.	8ryy	.	8cn\ 8e	.	8e/	.	8f#/	.	.	.	.	.	.	.	.	.	.
.	.	.	.	.	.	.	.	.	.	16ccn/Jk	.	.	.	.	.	.	.	.	.	.	.	.	.	.	.	.	.	.	.	.	.
8AAA/ 8AA	8r	4AA/	-ćia	.	4c\	.	4e/	.	.	4cc/	-ćia	.	8AA/	.	8AA/yy	.	8r	.	8r	.	8r	.	4r	.	4r	.	.	4r	.	4r	.
8r	8c/ 8e 8f#	.	.	.	.	.	.	.	.	.	.	.	8r	.	8ryy	.	8c\ 8e	.	8d#/	.	8f#/	.	.	.	.	.	.	.	.	.	.
!	!	!	!	!	!	!	!	!	!	!	!	!	!	!LO:DY:a	!	!LO:DY:a	!	!	!	!	!	!	!	!	!	!	!	!	!	!	!LO:DY:rj
4AAA#X/ 4AA#X	8r	8.AA#X/	w_zgo-	.	8.c#X\	.	8.e/	.	.	8.f#/	w_zgo-	.	4AA#X/	sf	4AA#X/yy	sfy	8r	.	8r	.	8r	.	8.A#X\L 8.c#	sf	8.f#/L	8.e\L	.	8.e/L 8.f#	.	8.ff#'\L	sf
.	8c#X/ 8e 8f#	.	.	.	.	.	.	.	.	.	.	.	.	.	.	.	8c#X\ 8e	.	8e/	.	8f#/	sf	.	.	.	.	.	.	.	.	.
.	.	16AA#/	-dzie	.	16c#\	.	16e/	.	.	16f#/	-dzie	.	.	.	.	.	.	.	.	.	.	.	16A#\Jk 16c#	.	16f#/Jk	16e\Jk	.	16e/Jk 16f#	.	16ff#'\Jk	.
*	*	*	*	*	*	*	*	*	*	*	*	*	*	*	*	*	*	*	*	*	*	*	*	*	*v	*v	*	*	*	*	*
!!LO:PB:g=original
=34	=34	=34	=34	=34	=34	=34	=34	=34	=34	=34	=34	=34	=34	=34	=34	=34	=34	=34	=34	=34	=34	=34	=34	=34	=34	=34	=34	=34	=34	=34
*	*	*	*	*	*	*	*	*	*	*	*	*	*	*	*	*	*^	*	*^	*	*	*	*	*	*	*	*^	*	*	*
8BBB/ 8BB	8r	4BB/	ży-	.	4B\	.	4d#/	.	.	8.f#/L	ży-	.	8BB/	.	8BB/yy	.	8r	4.ryy	.	8r	4.ryy	.	8r	.	(4B\	.	4.B/ 4.f#	.	(4f#/	4.d#\	.	(4ff#^<\	.
8r	8B/L 8d# 8f#	.	.	.	.	.	.	.	.	.	.	.	8r	.	8ryy	.	8B\L 8f#	.	.	8f#/L	.	.	8f#/L	.	.	.	.	.	.	.	.	.	.
.	.	.	.	.	.	.	.	.	.	16b/Jk	.	.	.	.	.	.	.	.	.	.	.	.	.	.	.	.	.	.	.	.	.	.	.
8BBB/ 8BB	8B/J 8d# 8f#	4BB/	-ią	.	4B\	.	4d#/	.	.	4b/	-ią	.	8BB/	.	8BB/yy	.	8B\J 8f#	.	.	8f#/J	.	.	8f#/J	.	8BB/)	.	.	.	8b/)	.	.	8bb\)	.
*	*	*	*	*	*	*	*	*	*	*	*	*	*	*	*	*	*	*	*	*	*	*	*	*	*	*	*	*	*v	*v	*	*	*
8r	8f#/L 8a	.	.	.	.	.	.	.	.	.	.	.	8r	.	8ryy	.	(<8f#/L	8r	.	(8a/L	8r	.	8r	.	8r	.	(8f#\L 8a	.	8r	.	8r	.
4r	8e/ 8g#	4r	.	.	4r	.	4r	.	.	4r	.	.	4r	.	4ryy	.	8e/	4r	.	8g#/	4r	.	4r	.	4r	.	8e\ 8g#	.	4r	.	4r	.
.	8B/J 8f#	.	.	.	.	.	.	.	.	.	.	.	.	.	.	.	8d#/J)	.	.	8f#/J)	.	.	.	.	.	.	8B\J) 8f#	.	.	.	.	.
*	*	*	*	*	*	*	*	*	*	*	*	*	*	*	*	*	*v	*v	*	*	*	*	*	*	*	*	*	*	*	*	*	*
*	*	*	*	*	*	*	*	*	*	*	*	*	*	*	*	*	*	*	*v	*v	*	*	*	*	*	*	*	*	*	*	*
=35	=35	=35	=35	=35	=35	=35	=35	=35	=35	=35	=35	=35	=35	=35	=35	=35	=35	=35	=35	=35	=35	=35	=35	=35	=35	=35	=35	=35	=35	=35
8EE/ 8E	8r	2.r	.	.	2.r	.	2.r	.	.	(4.b/	Któ-	.	2.ryy	.	2.ryy	.	2.ryy	.	2.ryy	.	2.ryy	.	2.ryy	.	2.ryy	.	2.ryy	.	2.ryy	.
8r	8B/ 8e 8g#	.	.	.	.	.	.	.	.	.	.	.	.	.	.	.	.	.	.	.	.	.	.	.	.	.	.	.	.	.
8EE/ 8E	8r	.	.	.	.	.	.	.	.	.	.	.	.	.	.	.	.	.	.	.	.	.	.	.	.	.	.	.	.	.
8r	8B/ 8e 8g#	.	.	.	.	.	.	.	.	16cc#/LL	.	.	.	.	.	.	.	.	.	.	.	.	.	.	.	.	.	.	.	.
.	.	.	.	.	.	.	.	.	.	16b/JJ)	.	.	.	.	.	.	.	.	.	.	.	.	.	.	.	.	.	.	.	.
8EE/ 8E	8r	.	.	.	.	.	.	.	.	(8a/L	-rzy	.	.	.	.	.	.	.	.	.	.	.	.	.	.	.	.	.	.	.
8r	8B/ 8e 8g#	.	.	.	.	.	.	.	.	8f#/J)	.	.	.	.	.	.	.	.	.	.	.	.	.	.	.	.	.	.	.	.
=36	=36	=36	=36	=36	=36	=36	=36	=36	=36	=36	=36	=36	=36	=36	=36	=36	=36	=36	=36	=36	=36	=36	=36	=36	=36	=36	=36	=36	=36	=36
8EE/ 8E	8r	2.r	.	.	2.r	.	4r	.	.	(4.ff#\	iuz	.	2.ryy	.	2.ryy	.	2.ryy	.	2.ryy	.	2.ryy	.	2.ryy	.	2.ryy	.	2.ryy	.	2.ryy	.
8r	8B/ 8e 8g#	.	.	.	.	.	.	.	.	.	.	.	.	.	.	.	.	.	.	.	.	.	.	.	.	.	.	.	.	.
8EE/ 8E	8r	.	.	.	.	.	4r	.	.	.	.	.	.	.	.	.	.	.	.	.	.	.	.	.	.	.	.	.	.	.
8r	8B/ 8e 8g#	.	.	.	.	.	.	.	.	8ee\)	.	.	.	.	.	.	.	.	.	.	.	.	.	.	.	.	.	.	.	.
8EE/ 8E	8r	.	.	.	.	.	(8.g#/L	są	.	(8.b/L	są	.	.	.	.	.	.	.	.	.	.	.	.	.	.	.	.	.	.	.
8r	8B/ 8e 8g#	.	.	.	.	.	.	.	.	.	.	.	.	.	.	.	.	.	.	.	.	.	.	.	.	.	.	.	.	.
.	.	.	.	.	.	.	16f#/Jk)	.	.	16a/Jk)	.	.	.	.	.	.	.	.	.	.	.	.	.	.	.	.	.	.	.	.
=37	=37	=37	=37	=37	=37	=37	=37	=37	=37	=37	=37	=37	=37	=37	=37	=37	=37	=37	=37	=37	=37	=37	=37	=37	=37	=37	=37	=37	=37	=37
8EE/ 8E	8r	4r	.	.	2.r	.	(4.e/	przy	.	(>4.g#/	przy	.	2.ryy	.	2.ryy	.	2.ryy	.	2.ryy	.	2.ryy	.	2.ryy	.	2.ryy	.	2.ryy	.	2.ryy	.
8r	8B/L 8e 8g#	.	.	.	.	.	.	.	.	.	.	.	.	.	.	.	.	.	.	.	.	.	.	.	.	.	.	.	.	.
4EE/ 4E	8B/J 8e 8g#	4r	.	.	.	.	.	.	.	.	.	.	.	.	.	.	.	.	.	.	.	.	.	.	.	.	.	.	.	.
.	8g#/L 8b	.	.	.	.	.	8g#/L	.	.	8b/L	.	.	.	.	.	.	.	.	.	.	.	.	.	.	.	.	.	.	.	.
8AA\L 8A	8f#/ 8a	(8A\L	Twym	.	.	.	8f#/J)	.	.	8a/J)	.	.	.	.	.	.	.	.	.	.	.	.	.	.	.	.	.	.	.	.
8AA#X\J 8A#X	8e/J 8g#	8A#X\J)	.	.	.	.	8e/	Twym	.	8g#/	Twym	.	.	.	.	.	.	.	.	.	.	.	.	.	.	.	.	.	.	.
=38	=38	=38	=38	=38	=38	=38	=38	=38	=38	=38	=38	=38	=38	=38	=38	=38	=38	=38	=38	=38	=38	=38	=38	=38	=38	=38	=38	=38	=38	=38
*^	*	*	*	*	*	*	*	*	*	*	*	*	*	*	*	*	*	*	*	*	*	*	*	*	*	*	*	*	*	*
2.BB/	8BB\L	8e/ 8g#	8B\	tro-	.	2.r	.	8e/	tro-	.	8g#/	tro-	.	2.ryy	.	2.ryy	.	2.ryy	.	2.ryy	.	2.ryy	.	2.ryy	.	2.ryy	.	2.ryy	.	2.ryy	.
.	8B\	8r	8r	.	.	.	.	8r	.	.	8r	.	.	.	.	.	.	.	.	.	.	.	.	.	.	.	.	.	.	.	.
.	8B\	2d#/ 2f#	2BB/	-nie	.	.	.	2d#/	-nie	.	2f#/	-nie	.	.	.	.	.	.	.	.	.	.	.	.	.	.	.	.	.	.	.
.	8B\	.	.	.	.	.	.	.	.	.	.	.	.	.	.	.	.	.	.	.	.	.	.	.	.	.	.	.	.	.	.
.	8B\	.	.	.	.	.	.	.	.	.	.	.	.	.	.	.	.	.	.	.	.	.	.	.	.	.	.	.	.	.	.
.	8B\J	.	.	.	.	.	.	.	.	.	.	.	.	.	.	.	.	.	.	.	.	.	.	.	.	.	.	.	.	.	.
*v	*v	*	*	*	*	*	*	*	*	*	*	*	*	*	*	*	*	*	*	*	*	*	*	*	*	*	*	*	*	*	*
!!LO:PB:g=original
=39	=39	=39	=39	=39	=39	=39	=39	=39	=39	=39	=39	=39	=39	=39	=39	=39	=39	=39	=39	=39	=39	=39	=39	=39	=39	=39	=39	=39	=39	=39
8BBB/ 8BB	8r	2.r	.	.	2.r	.	2.r	.	.	8a/	Ći	.	2.ryy	.	2.ryy	.	2.ryy	.	2.ryy	.	2.ryy	.	2.ryy	.	2.ryy	.	2.ryy	.	2.ryy	.
8r	8B/ 8d# 8f# 8a	.	.	.	.	.	.	.	.	8f#/	co	.	.	.	.	.	.	.	.	.	.	.	.	.	.	.	.	.	.	.
*rep	*rep	*	*	*	*	*	*	*	*	*	*	*	*	*	*	*	*	*	*	*	*	*	*	*	*	*	*	*	*	*
8BBB/ 8BB	8r	.	.	.	.	.	.	.	.	4.b/	ży-	.	.	.	.	.	.	.	.	.	.	.	.	.	.	.	.	.	.	.
8r	8B/ 8d# 8f# 8a	.	.	.	.	.	.	.	.	.	.	.	.	.	.	.	.	.	.	.	.	.	.	.	.	.	.	.	.	.
*Xrep	*Xrep	*	*	*	*	*	*	*	*	*	*	*	*	*	*	*	*	*	*	*	*	*	*	*	*	*	*	*	*	*
*rep	*rep	*	*	*	*	*	*	*	*	*	*	*	*	*	*	*	*	*	*	*	*	*	*	*	*	*	*	*	*	*
8BBB/ 8BB	8r	.	.	.	.	.	.	.	.	.	.	.	.	.	.	.	.	.	.	.	.	.	.	.	.	.	.	.	.	.
8r	8B/ 8d# 8f# 8a	.	.	.	.	.	.	.	.	8a/	-ią	.	.	.	.	.	.	.	.	.	.	.	.	.	.	.	.	.	.	.
*Xrep	*Xrep	*	*	*	*	*	*	*	*	*	*	*	*	*	*	*	*	*	*	*	*	*	*	*	*	*	*	*	*	*
=40	=40	=40	=40	=40	=40	=40	=40	=40	=40	=40	=40	=40	=40	=40	=40	=40	=40	=40	=40	=40	=40	=40	=40	=40	=40	=40	=40	=40	=40	=40
8EE/ 8E	8r	2.r	.	.	2.r	.	2.r	.	.	8g#/	do	.	2.ryy	.	2.ryy	.	2.ryy	.	2.ryy	.	2.ryy	.	2.ryy	.	2.ryy	.	2.ryy	.	2.ryy	.
8r	8B/ 8e 8g#	.	.	.	.	.	.	.	.	8b/	tej	.	.	.	.	.	.	.	.	.	.	.	.	.	.	.	.	.	.	.
*rep	*	*	*	*	*	*	*	*	*	*	*	*	*	*	*	*	*	*	*	*	*	*	*	*	*	*	*	*	*	*
8EE/ 8E	8r	.	.	.	.	.	.	.	.	4.ee\	chwi-	<	.	.	.	.	.	.	.	.	.	.	.	.	.	.	.	.	.	.
8r	8B/ 8e 8g#	.	.	.	.	.	.	.	.	.	.	.	.	.	.	.	.	.	.	.	.	.	.	.	.	.	.	.	.	.
*Xrep	*	*	*	*	*	*	*	*	*	*	*	*	*	*	*	*	*	*	*	*	*	*	*	*	*	*	*	*	*	*
*rep	*	*	*	*	*	*	*	*	*	*	*	*	*	*	*	*	*	*	*	*	*	*	*	*	*	*	*	*	*	*
8EE/ 8E	8r	.	.	.	.	.	.	.	.	.	.	.	.	.	.	.	.	.	.	.	.	.	.	.	.	.	.	.	.	.
8r	8B#X/ 8e 8g#	.	.	.	.	.	.	.	.	8b#X\	-li	[[	.	.	.	.	.	.	.	.	.	.	.	.	.	.	.	.	.	.
*Xrep	*	*	*	*	*	*	*	*	*	*	*	*	*	*	*	*	*	*	*	*	*	*	*	*	*	*	*	*	*	*
=41	=41	=41	=41	=41	=41	=41	=41	=41	=41	=41	=41	=41	=41	=41	=41	=41	=41	=41	=41	=41	=41	=41	=41	=41	=41	=41	=41	=41	=41	=41
8AAA/ 8AA	8r	2.r	.	.	2.r	.	2.r	.	.	8.dd#\	Ći	>	2.ryy	.	2.ryy	.	2.ryy	.	2.ryy	.	2.ryy	.	2.ryy	.	2.ryy	.	2.ryy	.	2.ryy	.
8r	8c#/ 8e 8f# 8a	.	.	.	.	.	.	.	.	.	.	.	.	.	.	.	.	.	.	.	.	.	.	.	.	.	.	.	.	.
.	.	.	.	.	.	.	.	.	.	16cc#\	co	.	.	.	.	.	.	.	.	.	.	.	.	.	.	.	.	.	.	.
8BBB/ 8BB	8r	.	.	.	.	.	.	.	.	8b\	ży-	.	.	.	.	.	.	.	.	.	.	.	.	.	.	.	.	.	.	.
8r	8B/ 8d# 8f# 8a	.	.	.	.	.	.	.	.	8a\	-ią	]	.	.	.	.	.	.	.	.	.	.	.	.	.	.	.	.	.	.
8BBB/ 8BB	8r	.	.	.	.	.	.	.	.	8.f#/	do	.	.	.	.	.	.	.	.	.	.	.	.	.	.	.	.	.	.	.
8r	8B/ 8d# 8f# 8a	.	.	.	.	.	.	.	.	.	.	.	.	.	.	.	.	.	.	.	.	.	.	.	.	.	.	.	.	.
.	.	.	.	.	.	.	.	.	.	16b/	tej	.	.	.	.	.	.	.	.	.	.	.	.	.	.	.	.	.	.	.
=42	=42	=42	=42	=42	=42	=42	=42	=42	=42	=42	=42	=42	=42	=42	=42	=42	=42	=42	=42	=42	=42	=42	=42	=42	=42	=42	=42	=42	=42	=42
*	*^	*	*	*	*	*	*	*	*	*	*	*	*	*	*	*	*	*	*	*	*	*	*	*	*	*	*	*	*	*
8EE/ 8E	8r	2ryy	2.r	.	.	4r	.	4r	.	.	(8.f##X^>/L	chwi-	.	2.ryy	.	2.ryy	.	2.ryy	.	2.ryy	.	2.ryy	.	2.ryy	.	2.ryy	.	2.ryy	.	2.ryy	.
8r	8B/L 8e 8g#	.	.	.	.	.	.	.	.	.	.	.	.	.	.	.	.	.	.	.	.	.	.	.	.	.	.	.	.	.	.
.	.	.	.	.	.	.	.	.	.	.	16g#/Jk)	.	.	.	.	.	.	.	.	.	.	.	.	.	.	.	.	.	.	.	.
8EE/ 8E	8B/J 8e 8g#	.	.	.	.	4r	.	4r	.	.	8g#/	-li,	.	.	.	.	.	.	.	.	.	.	.	.	.	.	.	.	.	.	.
8r	8r	.	.	.	.	.	.	.	.	.	8r	.	.	.	.	.	.	.	.	.	.	.	.	.	.	.	.	.	.	.	.
!	!	!	!	!	!	!	!	!	!	!	!	!	!LO:HP:a	!	!	!	!	!	!	!	!	!	!	!	!	!	!	!	!	!	!
4GG#\ 4G#	8.b/L	4e\	.	.	.	8.G#/	.	8.e/	.	.	8.b\	Co	<	.	.	.	.	.	.	.	.	.	.	.	.	.	.	.	.	.	.
.	16b#X/Jk	.	.	.	.	16G#/	.	16e/	.	.	16b#X\	po	[[	.	.	.	.	.	.	.	.	.	.	.	.	.	.	.	.	.	.
!!LO:PB:g=original
=43	=43	=43	=43	=43	=43	=43	=43	=43	=43	=43	=43	=43	=43	=43	=43	=43	=43	=43	=43	=43	=43	=43	=43	=43	=43	=43	=43	=43	=43	=43	=43
4.AA\ 4.A	4dd#/	4.e\	2.r	.	.	4A\	.	4e/	.	.	4dd#\	na-	>	2.ryy	.	2.ryy	.	2.ryy	.	2.ryy	.	2.ryy	.	2.ryy	.	2.ryy	.	2.ryy	.	2.ryy	.
.	8cc#/	.	.	.	.	8A\	.	8e/	.	.	8cc#\	-szym	]	.	.	.	.	.	.	.	.	.	.	.	.	.	.	.	.	.	.
8r	8r	8r	.	.	.	8r	.	8r	.	.	8r	.	.	.	.	.	.	.	.	.	.	.	.	.	.	.	.	.	.	.	.
!	!	!	!	!	!	!	!	!	!	!	!	!	!LO:HP:a	!	!	!	!	!	!	!	!	!	!	!	!	!	!	!	!	!	!
4FF##X\ 4F##X	4a#X/	[4e\	.	.	.	8.F##X/	.	8.e/	.	.	8.a#X/	przyj-	<	.	.	.	.	.	.	.	.	.	.	.	.	.	.	.	.	.	.
.	.	.	.	.	.	16F##/	.	16e/	.	.	16a#/	-dą	[[	.	.	.	.	.	.	.	.	.	.	.	.	.	.	.	.	.	.
=44	=44	=44	=44	=44	=44	=44	=44	=44	=44	=44	=44	=44	=44	=44	=44	=44	=44	=44	=44	=44	=44	=44	=44	=44	=44	=44	=44	=44	=44	=44	=44
4.GG#\ 4.G#	4cc#/	4.e\]	2.r	.	.	4G#/	.	4e/	.	.	4cc#\	zgo-	>	2.ryy	.	2.ryy	.	2.ryy	.	2.ryy	.	2.ryy	.	2.ryy	.	2.ryy	.	2.ryy	.	2.ryy	.
.	8b/	.	.	.	.	8G#/	.	8e/	.	.	8b\	-nie	]	.	.	.	.	.	.	.	.	.	.	.	.	.	.	.	.	.	.
8r	8r	8r	.	.	.	8r	.	8r	.	.	8r	.	.	.	.	.	.	.	.	.	.	.	.	.	.	.	.	.	.	.	.
4C#\ 4G#	8.ee/L	4e\	.	.	.	4r	.	4r	.	.	8.ee\	Spraw	.	.	.	.	.	.	.	.	.	.	.	.	.	.	.	.	.	.	.
.	16g#/Jk	.	.	.	.	.	.	.	.	.	16g#/	by	.	.	.	.	.	.	.	.	.	.	.	.	.	.	.	.	.	.	.
*	*v	*v	*	*	*	*	*	*	*	*	*	*	*	*	*	*	*	*	*	*	*	*	*	*	*	*	*	*	*	*	*
=45	=45	=45	=45	=45	=45	=45	=45	=45	=45	=45	=45	=45	=45	=45	=45	=45	=45	=45	=45	=45	=45	=45	=45	=45	=45	=45	=45	=45	=45	=45
8AA\ 8A	8r	2.r	.	.	2.r	.	2.r	.	.	4f#/	Bo-	.	2.ryy	.	2.ryy	.	2.ryy	.	2.ryy	.	2.ryy	.	2.ryy	.	2.ryy	.	2.ryy	.	2.ryy	.
8r	8c#/ 8e 8f#	.	.	.	.	.	.	.	.	.	.	.	.	.	.	.	.	.	.	.	.	.	.	.	.	.	.	.	.	.
8AA\ 8A	8r	.	.	.	.	.	.	.	.	8f#/	-że	.	.	.	.	.	.	.	.	.	.	.	.	.	.	.	.	.	.	.
8r	8c#/ 8e 8f#	.	.	.	.	.	.	.	.	16r	.	.	.	.	.	.	.	.	.	.	.	.	.	.	.	.	.	.	.	.
.	.	.	.	.	.	.	.	.	.	16cc#/KL	w_To-	.	.	.	.	.	.	.	.	.	.	.	.	.	.	.	.	.	.	.
4BB\ 4B	8r	.	.	.	.	.	.	.	.	8.b/J	.	.	.	.	.	.	.	.	.	.	.	.	.	.	.	.	.	.	.	.
.	8d#/ 8f# 8a	.	.	.	.	.	.	.	.	.	.	.	.	.	.	.	.	.	.	.	.	.	.	.	.	.	.	.	.	.
.	.	.	.	.	.	.	.	.	.	16a/	-bie	.	.	.	.	.	.	.	.	.	.	.	.	.	.	.	.	.	.	.
=46	=46	=46	=46	=46	=46	=46	=46	=46	=46	=46	=46	=46	=46	=46	=46	=46	=46	=46	=46	=46	=46	=46	=46	=46	=46	=46	=46	=46	=46	=46
8EE/ 8E	8r	4r	.	.	4r	.	4r	.	.	(8.f##X^>/L	ży-	.	2.ryy	.	2.ryy	.	2.ryy	.	2.ryy	.	2.ryy	.	2.ryy	.	2.ryy	.	2.ryy	.	2.ryy	.
8r	8B/ 8e 8g#	.	.	.	.	.	.	.	.	.	.	.	.	.	.	.	.	.	.	.	.	.	.	.	.	.	.	.	.	.
.	.	.	.	.	.	.	.	.	.	16g#/Jk)	.	.	.	.	.	.	.	.	.	.	.	.	.	.	.	.	.	.	.	.
8EE/ 8E	8r	4r	.	.	4r	.	4r	.	.	4g#/	-li	.	.	.	.	.	.	.	.	.	.	.	.	.	.	.	.	.	.	.
8r	8B/ 8e 8g#	.	.	.	.	.	.	.	.	.	.	.	.	.	.	.	.	.	.	.	.	.	.	.	.	.	.	.	.	.
!	!	!	!	!LO:DY:a:rj	!	!LO:DY:a:rj	!	!	!LO:DY:a:rj	!	!	!LO:DY:a:rj	!	!	!	!	!	!	!	!	!	!	!	!	!	!	!	!	!	!
8CC#/ 8C#	8r	8.C#/	Spraw	f	8.G#/	f	8.e/	.	f	8.ee\	Spraw	f	.	.	.	.	.	.	.	.	.	.	.	.	.	.	.	.	.	.
8r	8c#/ 8e 8g#	.	.	.	.	.	.	.	.	.	.	.	.	.	.	.	.	.	.	.	.	.	.	.	.	.	.	.	.	.
.	.	16C#/	to	.	16G#/	.	16e/	.	.	16g#/	to	.	.	.	.	.	.	.	.	.	.	.	.	.	.	.	.	.	.	.
!!LO:PB:g=original
=47	=47	=47	=47	=47	=47	=47	=47	=47	=47	=47	=47	=47	=47	=47	=47	=47	=47	=47	=47	=47	=47	=47	=47	=47	=47	=47	=47	=47	=47	=47
8AAA/ 8AA	8r	4AA/	.	.	4A\	.	4c#/	spraw,	.	(16f#/LL	Spraw	.	2.ryy	.	2.ryy	.	2.ryy	.	2.ryy	.	2.ryy	.	2.ryy	.	2.ryy	.	2.ryy	.	2.ryy	.
.	.	.	.	.	.	.	.	.	.	16e#X/	.	.	.	.	.	.	.	.	.	.	.	.	.	.	.	.	.	.	.	.
8r	8c#/ 8e 8f#	.	.	.	.	.	.	.	.	16f#/	.	.	.	.	.	.	.	.	.	.	.	.	.	.	.	.	.	.	.	.
.	.	.	.	.	.	.	.	.	.	16g#/JJ	.	.	.	.	.	.	.	.	.	.	.	.	.	.	.	.	.	.	.	.
8AAA/ 8AA	8r	4r	.	.	4r	.	4r	.	.	16a/LL	.	.	.	.	.	.	.	.	.	.	.	.	.	.	.	.	.	.	.	.
.	.	.	.	.	.	.	.	.	.	16g#/	.	.	.	.	.	.	.	.	.	.	.	.	.	.	.	.	.	.	.	.
8r	8c#/ 8e 8f#	.	.	.	.	.	.	.	.	16a/	.	.	.	.	.	.	.	.	.	.	.	.	.	.	.	.	.	.	.	.
.	.	.	.	.	.	.	.	.	.	16b/JJ)	.	.	.	.	.	.	.	.	.	.	.	.	.	.	.	.	.	.	.	.
4AAA#X/ 4AA#X	8r	4r	.	.	4r	.	4r	.	.	((16cc#\LL	To	.	.	.	.	.	.	.	.	.	.	.	.	.	.	.	.	.	.	.
.	.	.	.	.	.	.	.	.	.	16dd#\)	.	.	.	.	.	.	.	.	.	.	.	.	.	.	.	.	.	.	.	.
.	.	.	.	.	.	.	.	.	.	(8qff#/	.	.	.	.	.	.	.	.	.	.	.	.	.	.	.	.	.	.	.	.
.	8c#/ 8e 8gn	.	.	.	.	.	.	.	.	16ee\JJ))	Bo-	.	.	.	.	.	.	.	.	.	.	.	.	.	.	.	.	.	.	.
.	.	.	.	.	.	.	.	.	.	16cc#|>\	-że	.	.	.	.	.	.	.	.	.	.	.	.	.	.	.	.	.	.	.
=48	=48	=48	=48	=48	=48	=48	=48	=48	=48	=48	=48	=48	=48	=48	=48	=48	=48	=48	=48	=48	=48	=48	=48	=48	=48	=48	=48	=48	=48	=48
8BBB/ 8BB	8r	2BB/	.	.	2G#/	.	2e/	Bo-	.	(16b/LL	Spraw	.	2.ryy	.	2.ryy	.	2.ryy	.	2.ryy	.	2.ryy	.	2.ryy	.	2.ryy	.	2.ryy	.	2.ryy	.
.	.	.	.	.	.	.	.	.	.	16g#/	.	.	.	.	.	.	.	.	.	.	.	.	.	.	.	.	.	.	.	.
8r	8B/ 8e 8g#	.	.	.	.	.	.	.	.	16b/JJ)	.	.	.	.	.	.	.	.	.	.	.	.	.	.	.	.	.	.	.	.
.	.	.	.	.	.	.	.	.	.	16ee\	to	.	.	.	.	.	.	.	.	.	.	.	.	.	.	.	.	.	.	.
8BBB/ 8BB	8r	.	.	.	.	.	.	.	.	4gg#\	Bo-	.	.	.	.	.	.	.	.	.	.	.	.	.	.	.	.	.	.	.
8r	8B/ 8e 8g#	.	.	.	.	.	.	.	.	.	.	.	.	.	.	.	.	.	.	.	.	.	.	.	.	.	.	.	.	.
8BBB/ 8BB	8r	4BB/	.	.	4A/	.	4d#/	-że	.	4ff#\	-że	.	.	.	.	.	.	.	.	.	.	.	.	.	.	.	.	.	.	.
8r	8B/ 8d# 8f#	.	.	.	.	.	.	.	.	.	.	.	.	.	.	.	.	.	.	.	.	.	.	.	.	.	.	.	.	.
=49	=49	=49	=49	=49	=49	=49	=49	=49	=49	=49	=49	=49	=49	=49	=49	=49	=49	=49	=49	=49	=49	=49	=49	=49	=49	=49	=49	=49	=49	=49
*	*	*	*	*	*	*	*	*	*	*	*	*	*	*	*	*	*	*	*	*	*	*	*^	*	*	*	*	*	*	*
8EE\ 8E	8G#/ 8B 8e	4E\	.	.	4G#/	.	4e/	spraw.	.	4ee\	spraw.	.	8E\	.	8E\	.	8B\ 8g#	.	8g#\ 8ee	.	8ee\	.	8G#/	8E\	.	8G#/ 8e	.	8g#\ 8ee	.	8eee\	.
8r	8r	.	.	.	.	.	.	.	.	.	.	.	8r	.	8r	.	8r	.	8r	.	8r	.	8r	4.ryy	.	8r	.	8r	.	8r	.
4E\ 4G# 4B	4e/ 4g# 4b 4ee	4r	.	.	4r	.	4r	.	.	4r	.	.	8E^\	.	8E^\	.	8E\ 8B 8g#	.	8e\ 8b 8gg#	.	8eee^<\	.	8E\ 8B	.	.	8G#/ 8e	.	8g#\ 8ee	.	8eee\	.
.	.	.	.	.	.	.	.	.	.	.	.	.	8r	.	8r	.	8r	.	8r	.	8r	.	8r	.	.	8r	.	8r	.	8r	.
*	*^	*	*	*	*	*	*	*	*	*	*	*	*	*	*^	*	*^	*	*^	*	*^	*	*	*	*	*	*	*^	*	*	*
4GG#\ 4G#	8.b/L	[4e\	4r	.	.	4r	.	4r	.	.	4r	.	.	4r	.	4rEE	8G#/L	.	4r	8G#/L	.	4r	8e\L	.	4rA	8b/L	.	8GG#/L 8G#	4ryy	.	4r	.	8b/L	8e\L	.	8bb|>\L	<
.	.	.	.	.	.	.	.	.	.	.	.	.	.	.	.	.	16r	.	.	16r	.	.	16r	.	.	16r	.	16r	.	.	.	.	16r	16ryy	.	16r	.
.	16b#X/Jk	.	.	.	.	.	.	.	.	.	.	.	.	.	.	.	16G#/Jk	.	.	16G#/Jk	.	.	16e\Jk	.	.	16b#X/Jk	.	16GG#/Jk 16G#	.	.	.	.	16b#X/Jk	16e\Jk	.	16bb#X|>\Jk	[[
*	*	*	*	*	*	*	*	*	*	*	*	*	*	*	*	*	*	*	*	*	*	*	*	*	*	*	*	*v	*v	*	*	*	*	*	*	*	*
=50	=50	=50	=50	=50	=50	=50	=50	=50	=50	=50	=50	=50	=50	=50	=50	=50	=50	=50	=50	=50	=50	=50	=50	=50	=50	=50	=50	=50	=50	=50	=50	=50	=50	=50	=50	=50
4.AA\ 4.A	4dd#/	4.e\]	2.r	.	.	2.r	.	2.r	.	.	2.r	.	.	2.r	.	2.rEE	4.A/	.	2.r	4.A/	.	2.r	4.e\	.	2.rA	4dd#/	.	4.AA\ 4.A	.	4.E^</ 4.e	.	4dd#/	4.e\	.	(4ddd#\	>
.	8cc#/	.	.	.	.	.	.	.	.	.	.	.	.	.	.	.	.	.	.	.	.	.	.	.	.	8cc#/	.	.	.	.	.	8cc#/	.	.	8ccc#\)	]
8r	8r	8ryy	.	.	.	.	.	.	.	.	.	.	.	.	.	.	8rA	.	.	8r	.	.	8r	.	.	8rff	.	8r	.	8r	.	8r	8r	.	8r	.
4FF##X/ 4F##X	(8.a#X/L	4e\	.	.	.	.	.	.	.	.	.	.	.	.	.	.	8F##X/L	.	.	8F##X/L	.	.	8e\L	.	.	8a#X/L	.	8FF##X/L 8F##X	.	4r	.	8a#X/L	8e\L	.	8aa#X|>\L	<
.	.	.	.	.	.	.	.	.	.	.	.	.	.	.	.	.	16r	.	.	16r	.	.	16r	.	.	16r	.	16r	.	.	.	16r	16ryy	.	16r	.
.	(<16a#/Jk)	.	.	.	.	.	.	.	.	.	.	.	.	.	.	.	16F##/Jk	.	.	16F##/Jk	.	.	16e\Jk	.	.	16a#/Jk	.	16FF##/Jk 16F##	.	.	.	16a#/Jk	16e\Jk	.	16aa#|>\Jk	.
=51	=51	=51	=51	=51	=51	=51	=51	=51	=51	=51	=51	=51	=51	=51	=51	=51	=51	=51	=51	=51	=51	=51	=51	=51	=51	=51	=51	=51	=51	=51	=51	=51	=51	=51	=51	=51
4.GG#/ 4.G#	4cc#/	4.e\	2.r	.	.	2.r	.	2.r	.	.	2.r	.	.	2.r	.	2.rCC	4.G#/	.	2.r	4.G#/	.	2.r	4.e\	.	2.rA	4cc#/	.	4.GG#/ 4.G#	.	4.E/ 4.e	.	(4cc#/	4.e\	.	(4ccc#\	.
.	8b/)	.	.	.	.	.	.	.	.	.	.	.	.	.	.	.	.	.	.	.	.	.	.	.	.	8b/	.	.	.	.	.	8b/)	.	.	8bb\)	[
8r	8r	4.ryy	.	.	.	.	.	.	.	.	.	.	.	.	.	.	8rc	.	.	8r	.	.	8r	.	.	8r	.	8r	.	8r	.	8r	4.ryy	.	8r	.
4r	4r	.	.	.	.	.	.	.	.	.	.	.	.	.	.	.	4rc	.	.	4r	.	.	4r	.	.	4r	.	4r	.	4r	.	4r	.	.	4r	.
*	*	*	*	*	*	*	*	*	*	*	*	*	*	*	*	*v	*v	*	*	*	*	*v	*v	*	*v	*v	*	*	*	*	*	*v	*v	*	*	*
*	*	*	*	*	*	*	*	*	*	*	*	*	*	*	*	*	*	*v	*v	*	*	*	*	*	*	*	*	*	*	*	*	*
!!LO:PB:g=original
=52	=52	=52	=52	=52	=52	=52	=52	=52	=52	=52	=52	=52	=52	=52	=52	=52	=52	=52	=52	=52	=52	=52	=52	=52	=52	=52	=52	=52	=52	=52	=52
!	!	!	!	!	!	!	!	!	!	!	!	!	!	!	!	!	!LO:DY:rj	!	!LO:DY:rj	!	!	!	!LO:DY:rj	!	!	!	!	!	!	!	!
4.A\	(4.f#/	[2.c#\	2.ryy	.	.	2.ryy	.	2.ryy	.	.	2.ryy	.	.	2.r	.	(4.A\	p	(4.A/	p	(4.c#/	.	(>4.f#/	p	2.ryy	.	2.ryy	.	2.ryy	.	2.ryy	.
8G#\L	8e#X/L	.	.	.	.	.	.	.	.	.	.	.	.	.	.	8G#\L	.	8G#/L	.	8c#'/L	.	8e#X/L	<	.	.	.	.	.	.	.	.
8A\	8f#/	.	.	.	.	.	.	.	.	.	.	.	.	.	.	8A\	.	8A/	.	8c#'/	.	8f#/	.	.	.	.	.	.	.	.	.
8E#X\J	8g#/J)	.	.	.	.	.	.	.	.	.	.	.	.	.	.	8E#X\J)	.	8E#X/J)	.	8c#'/J)	.	8g#/J)	[[	.	.	.	.	.	.	.	.
=53	=53	=53	=53	=53	=53	=53	=53	=53	=53	=53	=53	=53	=53	=53	=53	=53	=53	=53	=53	=53	=53	=53	=53	=53	=53	=53	=53	=53	=53	=53	=53
4.F#\	(4.b/	2.c#\]	2.ryy	.	.	2.ryy	.	2.ryy	.	.	2.ryy	.	.	2.r	.	(4.F#\	.	(4.F#/	.	4.c#/	.	(4.b/	>	2.ryy	.	2.ryy	.	2.ryy	.	2.ryy	.
8F#\L	8a/L	.	.	.	.	.	.	.	.	.	.	.	.	.	.	8F#\L	.	8F#/L	.	(8c#'/L	.	8a/L	]	.	.	.	.	.	.	.	.
8G#\	8g#/	.	.	.	.	.	.	.	.	.	.	.	.	.	.	8G#\	.	8G#/	.	8c#'/	.	8g#/	.	.	.	.	.	.	.	.	.
8A\J	8f#/J)	.	.	.	.	.	.	.	.	.	.	.	.	.	.	8A\J)	.	8A/J)	.	8c#'/J)	.	8f#/J)	.	.	.	.	.	.	.	.	.
*	*v	*v	*	*	*	*	*	*	*	*	*	*	*	*	*	*	*	*	*	*	*	*	*	*	*	*	*	*	*	*	*
=54	=54	=54	=54	=54	=54	=54	=54	=54	=54	=54	=54	=54	=54	=54	=54	=54	=54	=54	=54	=54	=54	=54	=54	=54	=54	=54	=54	=54	=54	=54
*	*	*	*	*	*	*	*	*	*	*	*	*	*	*	*	*	*	*	*	*	*	*	*^	*	*	*	*	*	*	*
!	!	!	!	!	!	!	!	!	!	!	!	!	!	!	!	!LO:DY:rj	!	!	!	!	!	!	!	!	!	!	!	!	!LO:DY:rj	!	!
16B\LL	16e/LL 16g#	2.ryy	.	.	2.ryy	.	2.ryy	.	.	2.ryy	.	.	4r	.	8B\	f	8B/	.	8e/	f	8g#/	f	2.rAAA	16B/LL	.	16B'/LL	.	16b'/LL	f	2.ryy	.
16G#\	16g#/	.	.	.	.	.	.	.	.	.	.	.	.	.	.	.	.	.	.	.	.	.	.	16G#/	.	16G#'/	.	16g#'/	.	.	.
16E\	16e/	.	.	.	.	.	.	.	.	.	.	.	.	.	8r	.	8r	.	8r	.	8r	.	.	16E/	.	16E'/	.	16e'/	.	.	.
16G#\JJ	16g#/JJ	.	.	.	.	.	.	.	.	.	.	.	.	.	.	.	.	.	.	.	.	.	.	16G#/JJ	.	16G#'/JJ	.	16g#'/JJ	.	.	.
*2\right	*	*	*	*	*	*	*	*	*	*	*	*	*	*	*	*	*	*	*	*	*	*	*	*	*	*	*	*	*	*	*
[2B\	[2b/	.	.	.	.	.	.	.	.	.	.	.	16r	.	16ryy	.	16r	.	16r	.	16r	.	.	[>2B/	.	[2B/	.	[>2b/	.	.	.
!	!	!	!	!	!	!	!	!	!	!	!	!	!	!LO:DY:rj	!	!LO:DY:rj	!	!LO:DY:rj	!	!	!	!LO:DY:rj	!	!	!	!	!	!	!	!	!
.	.	.	.	.	.	.	.	.	.	.	.	.	(16E'\LL	p	(16E'\LLyy	py	(16E'/LL 16B	p	(16e'/LL	.	(16B'/LL 16g#	p	.	.	.	.	.	.	.	.	.
.	.	.	.	.	.	.	.	.	.	.	.	.	16E'\	.	16E'\yy	.	16E'/ 16B	.	16e'/	.	16B'/ 16g#	.	.	.	.	.	.	.	.	.	.
.	.	.	.	.	.	.	.	.	.	.	.	.	16E'\JJ	.	16E'\JJyy	.	16E'/JJ 16B	.	16e'/JJ	.	16B'/JJ 16g#	.	.	.	.	.	.	.	.	.	.
.	.	.	.	.	.	.	.	.	.	.	.	.	8E'\)	.	8E'\)yy	.	8E'/) 8B	.	8e'/)	.	8B'/) 8g#	.	.	.	.	.	.	.	.	.	.
.	.	.	.	.	.	.	.	.	.	.	.	.	8r	.	8ryy	.	8r	.	8r	.	8r	.	.	.	.	.	.	.	.	.	.
=55	=55	=55	=55	=55	=55	=55	=55	=55	=55	=55	=55	=55	=55	=55	=55	=55	=55	=55	=55	=55	=55	=55	=55	=55	=55	=55	=55	=55	=55	=55	=55
16B\LL]	16b/LL]	2.ryy	.	.	2.ryy	.	2.ryy	.	.	2.ryy	.	.	4r	.	4ryy	.	4r	.	4r	.	4r	.	2.rAAA	16B/LL]	.	16B/LL]	.	16b/LL]	.	2.ryy	.
16G#\	16g#'/	.	.	.	.	.	.	.	.	.	.	.	.	.	.	.	.	.	.	.	.	.	.	16G#/	.	16G#'/	.	16g#'/	.	.	.
16B\	16b'/	.	.	.	.	.	.	.	.	.	.	.	.	.	.	.	.	.	.	.	.	.	.	16B/	.	16B'/	.	16b'/	.	.	.
16e\JJ	16ee'/JJ	.	.	.	.	.	.	.	.	.	.	.	.	.	.	.	.	.	.	.	.	.	.	16e/JJ	.	16e'/JJ	.	16ee'/JJ	.	.	.
[2B\	[2b/	.	.	.	.	.	.	.	.	.	.	.	16r	.	16ryy	.	16r	.	16r	.	16r	.	.	[>2B/	.	2B/	.	[>2b'/	.	.	.
.	.	.	.	.	.	.	.	.	.	.	.	.	(16E'\LL	.	(16E'\LLyy	.	(16E'/LL 16B	.	(16e'/LL	.	(16B'/LL 16g#	.	.	.	.	.	.	.	.	.	.
.	.	.	.	.	.	.	.	.	.	.	.	.	16E'\	.	16E'\yy	.	16E'/ 16B	.	16e'/	.	16B'/ 16g#	.	.	.	.	.	.	.	.	.	.
.	.	.	.	.	.	.	.	.	.	.	.	.	16E'\JJ	.	16E'\JJyy	.	16E'/JJ 16B	.	16e'/JJ	.	16B'/JJ 16g#	.	.	.	.	.	.	.	.	.	.
.	.	.	.	.	.	.	.	.	.	.	.	.	8E'\)	.	8E'\)yy	.	8E'/) 8B	.	8e'/)	.	8B'/) 8g#	.	.	.	.	.	.	.	.	.	.
.	.	.	.	.	.	.	.	.	.	.	.	.	8r	.	8ryy	.	8r	.	8r	.	8r	.	.	.	.	.	.	.	.	.	.
=56	=56	=56	=56	=56	=56	=56	=56	=56	=56	=56	=56	=56	=56	=56	=56	=56	=56	=56	=56	=56	=56	=56	=56	=56	=56	=56	=56	=56	=56	=56	=56
*^	*	*	*	*	*	*	*	*	*	*	*	*	*	*	*	*	*	*	*	*	*	*	*	*	*	*^	*	*^	*	*	*
8B\]	4ryy	8b/]	2.ryy	.	.	2.ryy	.	2.ryy	.	.	2.ryy	.	.	4r	.	4ryy	.	4r	.	4r	.	4r	.	4rEE	8B/]	.	8B/	4ryy	.	8b/]	4ryy	.	4r	.
8r	.	8r	.	.	.	.	.	.	.	.	.	.	.	.	.	.	.	.	.	.	.	.	.	.	8r	.	8rG	.	.	8r	.	.	.	.
!	!	!	!	!	!	!	!	!	!	!	!	!	!	!	!LO:DY:rj	!	!LO:DY:rj	!	!LO:DY:rj	!	!	!	!LO:DY:rj	!	!	!	!	!	!LO:DY:rj	!	!	!	!	!LO:DY:rj
4B/	2BB\	4e/ 4g#	.	.	.	.	.	.	.	.	.	.	.	4B\	f	4B\yy	fy	4B\ 4g#	f	4g#/ 4ee	.	4b\ 4gg#	f	4BB\ 4B	2ryy	.	4g#/	4e\	f	4b\ 4gg#	2ryy	.	4eee\	f
4A/	.	4B/ 4d# 4f#	.	.	.	.	.	.	.	.	.	.	.	4BB/	.	4BB/yy	.	4B\ 4a	.	4f#/ 4dd#	.	4b\ 4ff#	.	4BB\ 4B	.	.	4f#/	4B\	.	4a\ 4ff#	.	.	4ddd#\	.
*	*	*	*	*	*	*	*	*	*	*	*	*	*	*	*	*	*	*	*	*	*	*	*	*	*	*	*v	*v	*	*	*	*	*	*
*v	*v	*	*	*	*	*	*	*	*	*	*	*	*	*	*	*	*	*	*	*	*	*	*	*	*	*	*	*	*v	*v	*	*	*
=57	=57	=57	=57	=57	=57	=57	=57	=57	=57	=57	=57	=57	=57	=57	=57	=57	=57	=57	=57	=57	=57	=57	=57	=57	=57	=57	=57	=57	=57	=57	=57
8E\ 8G#	8B/ 8e	2.ryy	.	.	2.ryy	.	2.ryy	.	.	2.ryy	.	.	8E\	.	8E\yy	.	8B\ 8g#	.	8g#/ 8ee	.	8ee\	.	8E\ 8e	4ryy	.	8G#/ 8e	.	8g#\ 8ee	.	8eee\	.
8r	8r	.	.	.	.	.	.	.	.	.	.	.	8r	.	8ryy	.	8r	.	8r	.	8r	.	8r	.	.	8r	.	8r	.	8r	.
*	*	*	*	*	*	*	*	*	*	*	*	*	*2\right	*	*2\right	*	*2\right	*	*	*	*2\right	*	*	*	*	*	*	*	*	*	*
!	!LO:SIC:v:n=2:s=2e/	!	!	!	!	!	!	!	!	!	!	!	!	!	!	!	!	!	!	!	!	!	!	!	!	!	!	!	!	!	!
!	!LO:SIC:v:n=3:s=2g#	!	!	!	!	!	!	!	!	!	!	!	!	!	!	!	!	!	!	!	!	!	!	!	!	!	!	!	!	!	!
2EE/ 2E	2d#/ 2f# 2b 2ee	.	.	.	.	.	.	.	.	.	.	.	2E^\	.	2E^\yy	.	2B\ 2g#	.	2g#/ 2ee	.	2eee^<\	.	2E/	2E\	.	2G#/ 2e	.	2g#\ 2ee	.	2eee^<\	.
*	*	*	*	*	*	*	*	*	*	*	*	*	*	*	*	*	*	*	*	*	*	*	*v	*v	*	*	*	*	*	*	*
==	==	==	==	==	==	==	==	==	==	==	==	==	==	==	==	==	==	==	==	==	==	==	==	==	==	==	==	==	==	==
*-	*-	*-	*-	*-	*-	*-	*-	*-	*-	*-	*-	*-	*-	*-	*-	*-	*-	*-	*-	*-	*-	*-	*-	*-	*-	*-	*-	*-	*-	*-
!!!system-decoration: {(s1,s2,s3,s4)}{(<g1>,s7,s8,s9)}{(s10,s11,s12,s13)}{(s14,s15)}
!!!RDF**kern: < = below
!!!RDF**kern: > = above
!!!RDF**kern: | = vertical stroke
!!!ENC: Marta Chmielewska
!!!END: 2021-08-12
!!!ENC: Tomasz Grochalski
!!!END: 2021-08-01
